%
(1)
(ciao modno)
(T1  D=0.5 CR=0.05 - ZMIN=-2.5 - bullnose end mill)
G90 G94
G17
G21
G28 G91 Z0
G90

(2D Adaptive3)
M9
T1 M6
S5000 M3
G54
M8
G0 X13.577 Y13.069
Z15
Z5
Z3.05
G1 Z3 F1000
G3 X13.657 Y12.697 Z2.979 I0.04 J-0.186 F333.3
X13.577 Y13.069 Z2.958 I-0.04 J0.186
X13.657 Y12.697 Z2.937 I0.04 J-0.186
X13.577 Y13.069 Z2.917 I-0.04 J0.186
X13.657 Y12.697 Z2.896 I0.04 J-0.186
X13.577 Y13.069 Z2.875 I-0.04 J0.186
X13.657 Y12.697 Z2.854 I0.04 J-0.186
X13.577 Y13.069 Z2.833 I-0.04 J0.186
X13.657 Y12.697 Z2.812 I0.04 J-0.186
X13.577 Y13.069 Z2.792 I-0.04 J0.186
X13.657 Y12.697 Z2.771 I0.04 J-0.186
X13.577 Y13.069 Z2.75 I-0.04 J0.186
X13.657 Y12.697 Z2.729 I0.04 J-0.186
X13.577 Y13.069 Z2.708 I-0.04 J0.186
X13.657 Y12.697 Z2.687 I0.04 J-0.186
X13.577 Y13.069 Z2.666 I-0.04 J0.186
X13.657 Y12.697 Z2.646 I0.04 J-0.186
X13.577 Y13.069 Z2.625 I-0.04 J0.186
X13.657 Y12.697 Z2.604 I0.04 J-0.186
X13.577 Y13.069 Z2.583 I-0.04 J0.186
X13.657 Y12.697 Z2.562 I0.04 J-0.186
X13.577 Y13.069 Z2.541 I-0.04 J0.186
X13.657 Y12.697 Z2.521 I0.04 J-0.186
X13.577 Y13.069 Z2.5 I-0.04 J0.186
X13.657 Y12.697 Z2.479 I0.04 J-0.186
X13.577 Y13.069 Z2.458 I-0.04 J0.186
X13.657 Y12.697 Z2.437 I0.04 J-0.186
X13.577 Y13.069 Z2.416 I-0.04 J0.186
X13.657 Y12.697 Z2.396 I0.04 J-0.186
X13.577 Y13.069 Z2.375 I-0.04 J0.186
X13.657 Y12.697 Z2.354 I0.04 J-0.186
X13.577 Y13.069 Z2.333 I-0.04 J0.186
X13.657 Y12.697 Z2.312 I0.04 J-0.186
X13.577 Y13.069 Z2.291 I-0.04 J0.186
X13.657 Y12.697 Z2.27 I0.04 J-0.186
X13.577 Y13.069 Z2.25 I-0.04 J0.186
X13.657 Y12.697 Z2.229 I0.04 J-0.186
X13.577 Y13.069 Z2.208 I-0.04 J0.186
X13.657 Y12.697 Z2.187 I0.04 J-0.186
X13.577 Y13.069 Z2.166 I-0.04 J0.186
X13.657 Y12.697 Z2.145 I0.04 J-0.186
X13.577 Y13.069 Z2.125 I-0.04 J0.186
X13.657 Y12.697 Z2.104 I0.04 J-0.186
X13.577 Y13.069 Z2.083 I-0.04 J0.186
X13.657 Y12.697 Z2.062 I0.04 J-0.186
X13.577 Y13.069 Z2.041 I-0.04 J0.186
X13.657 Y12.697 Z2.02 I0.04 J-0.186
X13.577 Y13.069 Z1.999 I-0.04 J0.186
X13.657 Y12.697 Z1.979 I0.04 J-0.186
X13.577 Y13.069 Z1.958 I-0.04 J0.186
X13.657 Y12.697 Z1.937 I0.04 J-0.186
X13.577 Y13.069 Z1.916 I-0.04 J0.186
X13.657 Y12.697 Z1.895 I0.04 J-0.186
X13.577 Y13.069 Z1.874 I-0.04 J0.186
X13.657 Y12.697 Z1.854 I0.04 J-0.186
X13.577 Y13.069 Z1.833 I-0.04 J0.186
X13.657 Y12.697 Z1.812 I0.04 J-0.186
X13.577 Y13.069 Z1.791 I-0.04 J0.186
X13.657 Y12.697 Z1.77 I0.04 J-0.186
X13.577 Y13.069 Z1.749 I-0.04 J0.186
X13.657 Y12.697 Z1.728 I0.04 J-0.186
X13.577 Y13.069 Z1.708 I-0.04 J0.186
X13.657 Y12.697 Z1.687 I0.04 J-0.186
X13.577 Y13.069 Z1.666 I-0.04 J0.186
X13.657 Y12.697 Z1.645 I0.04 J-0.186
X13.577 Y13.069 Z1.624 I-0.04 J0.186
X13.657 Y12.697 Z1.603 I0.04 J-0.186
X13.577 Y13.069 Z1.583 I-0.04 J0.186
X13.657 Y12.697 Z1.562 I0.04 J-0.186
X13.577 Y13.069 Z1.541 I-0.04 J0.186
X13.657 Y12.697 Z1.52 I0.04 J-0.186
X13.577 Y13.069 Z1.499 I-0.04 J0.186
X13.657 Y12.697 Z1.478 I0.04 J-0.186
X13.577 Y13.069 Z1.458 I-0.04 J0.186
X13.657 Y12.697 Z1.437 I0.04 J-0.186
X13.577 Y13.069 Z1.416 I-0.04 J0.186
X13.657 Y12.697 Z1.395 I0.04 J-0.186
X13.577 Y13.069 Z1.374 I-0.04 J0.186
X13.657 Y12.697 Z1.353 I0.04 J-0.186
X13.577 Y13.069 Z1.332 I-0.04 J0.186
X13.657 Y12.697 Z1.312 I0.04 J-0.186
X13.577 Y13.069 Z1.291 I-0.04 J0.186
X13.657 Y12.697 Z1.27 I0.04 J-0.186
X13.577 Y13.069 Z1.249 I-0.04 J0.186
X13.657 Y12.697 Z1.228 I0.04 J-0.186
X13.577 Y13.069 Z1.207 I-0.04 J0.186
X13.657 Y12.697 Z1.187 I0.04 J-0.186
X13.577 Y13.069 Z1.166 I-0.04 J0.186
X13.657 Y12.697 Z1.145 I0.04 J-0.186
X13.577 Y13.069 Z1.124 I-0.04 J0.186
X13.657 Y12.697 Z1.103 I0.04 J-0.186
X13.577 Y13.069 Z1.082 I-0.04 J0.186
X13.657 Y12.697 Z1.061 I0.04 J-0.186
X13.577 Y13.069 Z1.041 I-0.04 J0.186
X13.657 Y12.697 Z1.02 I0.04 J-0.186
X13.577 Y13.069 Z0.999 I-0.04 J0.186
X13.657 Y12.697 Z0.978 I0.04 J-0.186
X13.577 Y13.069 Z0.957 I-0.04 J0.186
X13.657 Y12.697 Z0.936 I0.04 J-0.186
X13.577 Y13.069 Z0.916 I-0.04 J0.186
X13.657 Y12.697 Z0.895 I0.04 J-0.186
X13.577 Y13.069 Z0.874 I-0.04 J0.186
X13.657 Y12.697 Z0.853 I0.04 J-0.186
X13.577 Y13.069 Z0.832 I-0.04 J0.186
X13.657 Y12.697 Z0.811 I0.04 J-0.186
X13.577 Y13.069 Z0.791 I-0.04 J0.186
X13.657 Y12.697 Z0.77 I0.04 J-0.186
X13.577 Y13.069 Z0.749 I-0.04 J0.186
X13.657 Y12.697 Z0.728 I0.04 J-0.186
X13.577 Y13.069 Z0.707 I-0.04 J0.186
X13.657 Y12.697 Z0.686 I0.04 J-0.186
X13.577 Y13.069 Z0.665 I-0.04 J0.186
X13.657 Y12.697 Z0.645 I0.04 J-0.186
X13.577 Y13.069 Z0.624 I-0.04 J0.186
X13.657 Y12.697 Z0.603 I0.04 J-0.186
X13.577 Y13.069 Z0.582 I-0.04 J0.186
X13.657 Y12.697 Z0.561 I0.04 J-0.186
X13.577 Y13.069 Z0.54 I-0.04 J0.186
X13.657 Y12.697 Z0.52 I0.04 J-0.186
X13.577 Y13.069 Z0.499 I-0.04 J0.186
X13.657 Y12.697 Z0.478 I0.04 J-0.186
X13.577 Y13.069 Z0.457 I-0.04 J0.186
X13.657 Y12.697 Z0.436 I0.04 J-0.186
X13.577 Y13.069 Z0.415 I-0.04 J0.186
X13.657 Y12.697 Z0.394 I0.04 J-0.186
X13.577 Y13.069 Z0.374 I-0.04 J0.186
X13.657 Y12.697 Z0.353 I0.04 J-0.186
X13.577 Y13.069 Z0.332 I-0.04 J0.186
X13.657 Y12.697 Z0.311 I0.04 J-0.186
X13.577 Y13.069 Z0.29 I-0.04 J0.186
X13.657 Y12.697 Z0.269 I0.04 J-0.186
X13.577 Y13.069 Z0.249 I-0.04 J0.186
X13.657 Y12.697 Z0.228 I0.04 J-0.186
X13.577 Y13.069 Z0.207 I-0.04 J0.186
X13.657 Y12.697 Z0.186 I0.04 J-0.186
X13.577 Y13.069 Z0.165 I-0.04 J0.186
X13.657 Y12.697 Z0.144 I0.04 J-0.186
X13.577 Y13.069 Z0.123 I-0.04 J0.186
X13.657 Y12.697 Z0.103 I0.04 J-0.186
X13.577 Y13.069 Z0.082 I-0.04 J0.186
X13.657 Y12.697 Z0.061 I0.04 J-0.186
X13.577 Y13.069 Z0.04 I-0.04 J0.186
X13.657 Y12.697 Z0.019 I0.04 J-0.186
X13.577 Y13.069 Z-0.002 I-0.04 J0.186
X13.657 Y12.697 Z-0.022 I0.04 J-0.186
X13.577 Y13.069 Z-0.043 I-0.04 J0.186
X13.657 Y12.697 Z-0.064 I0.04 J-0.186
X13.577 Y13.069 Z-0.085 I-0.04 J0.186
X13.657 Y12.697 Z-0.106 I0.04 J-0.186
X13.577 Y13.069 Z-0.127 I-0.04 J0.186
X13.657 Y12.697 Z-0.147 I0.04 J-0.186
X13.577 Y13.069 Z-0.168 I-0.04 J0.186
X13.657 Y12.697 Z-0.189 I0.04 J-0.186
X13.577 Y13.069 Z-0.21 I-0.04 J0.186
X13.657 Y12.697 Z-0.231 I0.04 J-0.186
X13.577 Y13.069 Z-0.252 I-0.04 J0.186
X13.657 Y12.697 Z-0.273 I0.04 J-0.186
X13.577 Y13.069 Z-0.293 I-0.04 J0.186
X13.657 Y12.697 Z-0.314 I0.04 J-0.186
X13.577 Y13.069 Z-0.335 I-0.04 J0.186
X13.657 Y12.697 Z-0.356 I0.04 J-0.186
X13.577 Y13.069 Z-0.377 I-0.04 J0.186
X13.657 Y12.697 Z-0.398 I0.04 J-0.186
X13.577 Y13.069 Z-0.418 I-0.04 J0.186
X13.657 Y12.697 Z-0.439 I0.04 J-0.186
X13.577 Y13.069 Z-0.46 I-0.04 J0.186
X13.657 Y12.697 Z-0.481 I0.04 J-0.186
X13.807 Y12.883 Z-0.49 I-0.04 J0.186
X13.427 I-0.19
X13.807 I0.19
G1 X13.824 Y12.956 F1000
X13.836 Y12.992
X13.833 Y13.067
X13.794 Y13.131
X13.736 Y13.178
X13.666 Y13.205
X13.591 Y13.213
X13.517 Y13.202
X13.378 Y13.145
X13.286 Y13.027
X13.254 Y12.88
X13.286 Y12.733
X13.374 Y12.612
X13.504 Y12.537
X13.653 Y12.521
X13.796 Y12.567
X13.909 Y12.666
X13.973 Y12.801
X14.012 Y12.946
X14.004 Y13.096
X13.935 Y13.23
X13.822 Y13.328
X13.682 Y13.381
X13.532 Y13.386
X13.386 Y13.35
X13.259 Y13.27
X13.157 Y13.16
X13.098 Y13.022
X13.08 Y12.874
X13.099 Y12.725
X13.164 Y12.589
X13.263 Y12.477
X13.387 Y12.392
X13.53 Y12.35
X13.68 Y12.348
X13.826 Y12.383
X13.954 Y12.461
X14.056 Y12.571
X14.13 Y12.701
X14.181 Y12.843
X14.196 Y12.992
X14.174 Y13.14
X14.119 Y13.28
X14.024 Y13.396
X13.904 Y13.485
X13.767 Y13.546
X13.619 Y13.571
X13.469 Y13.561
X13.325 Y13.519
X13.192 Y13.449
X13.078 Y13.352
X12.991 Y13.23
X12.931 Y13.093
X12.899 Y12.946
Y12.796
X12.934 Y12.65
X12.997 Y12.514
X13.085 Y12.393
X13.197 Y12.293
X13.329 Y12.221
X13.472 Y12.176
X13.621 Y12.16
X13.77 Y12.176
X13.912 Y12.224
X14.042 Y12.299
X14.154 Y12.398
X14.244 Y12.519
X14.312 Y12.652
X14.358 Y12.795
X14.38 Y12.943
X14.373 Y13.093
X14.337 Y13.239
X14.273 Y13.374
X14.184 Y13.495
X14.073 Y13.596
X13.945 Y13.674
X13.804 Y13.726
X13.656 Y13.752
X13.506 Y13.753
X13.359 Y13.727
X13.218 Y13.675
X13.088 Y13.601
X12.971 Y13.506
X12.873 Y13.393
X12.798 Y13.263
X12.746 Y13.122
X12.717 Y12.975
X12.711 Y12.825
X12.732 Y12.677
X12.779 Y12.534
X12.848 Y12.401
X12.938 Y12.281
X13.045 Y12.176
X13.169 Y12.091
X13.305 Y12.03
X13.45 Y11.991
X13.599 Y11.975
X13.749 Y11.983
X13.895 Y12.017
X14.033 Y12.076
X14.16 Y12.156
X14.273 Y12.254
X14.37 Y12.369
X14.449 Y12.497
X14.508 Y12.635
X14.547 Y12.779
X14.565 Y12.928
X14.563 Y13.078
X14.537 Y13.226
X14.487 Y13.367
X14.415 Y13.499
X14.323 Y13.618
X14.215 Y13.721
X14.092 Y13.808
X13.957 Y13.873
X13.813 Y13.917
X13.665 Y13.939
X13.515 Y13.941
X13.366 Y13.922
X13.222 Y13.881
X13.085 Y13.82
X12.958 Y13.74
X12.844 Y13.643
X12.743 Y13.531
X12.66 Y13.407
X12.596 Y13.271
X12.552 Y13.128
X12.528 Y12.98
X12.524 Y12.83
X12.54 Y12.68
X12.576 Y12.535
X12.634 Y12.397
X12.711 Y12.268
X12.803 Y12.15
X12.91 Y12.045
X13.031 Y11.955
X13.162 Y11.883
X13.303 Y11.832
X13.45 Y11.8
X13.599 Y11.787
X13.749 Y11.794
X13.897 Y11.821
X14.039 Y11.869
X14.173 Y11.937
X14.296 Y12.023
X14.407 Y12.123
X14.506 Y12.236
X14.589 Y12.361
X14.657 Y12.494
X14.708 Y12.636
X14.74 Y12.782
X14.755 Y12.931
X14.751 Y13.081
X14.73 Y13.23
X14.689 Y13.374
X14.627 Y13.511
X14.548 Y13.638
X14.453 Y13.754
X14.345 Y13.858
X14.224 Y13.947
X14.093 Y14.021
X13.953 Y14.075
X13.808 Y14.111
X13.659 Y14.129
X13.509 Y14.13
X13.36 Y14.113
X13.214 Y14.078
X13.073 Y14.026
X12.94 Y13.956
X12.817 Y13.871
X12.705 Y13.772
X12.604 Y13.66
X12.518 Y13.538
X12.447 Y13.406
X12.392 Y13.266
X12.356 Y13.12
X12.337 Y12.971
X12.335 Y12.821
X12.35 Y12.672
X12.381 Y12.526
X12.43 Y12.384
X12.497 Y12.249
X12.579 Y12.124
X12.675 Y12.008
X12.783 Y11.904
X12.902 Y11.813
X13.031 Y11.736
X13.168 Y11.676
X13.312 Y11.633
X13.46 Y11.607
X13.609 Y11.598
X13.759 Y11.605
X13.907 Y11.629
X14.051 Y11.67
X14.189 Y11.729
X14.319 Y11.804
X14.439 Y11.894
X14.549 Y11.996
X14.648 Y12.109
X14.734 Y12.232
X14.807 Y12.363
X14.866 Y12.501
X14.908 Y12.645
X14.935 Y12.793
X14.946 Y12.942
X14.941 Y13.092
X14.921 Y13.241
X14.885 Y13.386
X14.832 Y13.527
X14.762 Y13.66
X14.678 Y13.783
X14.58 Y13.897
X14.471 Y14
X14.351 Y14.091
X14.223 Y14.168
X14.086 Y14.231
X13.944 Y14.277
X13.797 Y14.307
X13.647 Y14.321
X13.497 Y14.32
X13.348 Y14.304
X13.201 Y14.273
X13.059 Y14.227
X12.922 Y14.165
X12.793 Y14.089
X12.672 Y14
X12.562 Y13.898
X12.462 Y13.786
X12.373 Y13.665
X12.298 Y13.536
X12.236 Y13.399
X12.19 Y13.256
X12.16 Y13.109
X12.145 Y12.96
X12.144 Y12.81
X12.159 Y12.661
X12.187 Y12.513
X12.231 Y12.37
X12.289 Y12.232
X12.363 Y12.101
X12.449 Y11.978
X12.548 Y11.865
X12.656 Y11.762
X12.775 Y11.67
X12.902 Y11.589
X13.036 Y11.523
X13.177 Y11.471
X13.322 Y11.434
X13.471 Y11.413
X13.62 Y11.407
X13.77 Y11.414
X13.919 Y11.437
X14.064 Y11.474
X14.205 Y11.525
X14.339 Y11.592
X14.466 Y11.672
X14.583 Y11.765
X14.692 Y11.869
X14.791 Y11.982
X14.879 Y12.103
X14.955 Y12.232
X15.02 Y12.368
X15.071 Y12.509
X15.107 Y12.654
X15.129 Y12.803
X15.137 Y12.953
X15.132 Y13.102
X15.113 Y13.251
X15.081 Y13.398
X15.034 Y13.54
X14.972 Y13.677
X14.896 Y13.806
X14.808 Y13.927
X14.708 Y14.04
X14.599 Y14.142
X14.48 Y14.234
X14.354 Y14.315
X14.22 Y14.383
X14.08 Y14.437
X13.936 Y14.476
X13.788 Y14.502
X13.638 Y14.513
X13.488 Y14.511
X13.339 Y14.496
X13.192 Y14.468
X13.047 Y14.427
X12.908 Y14.372
X12.774 Y14.304
X12.648 Y14.223
X12.53 Y14.13
X12.42 Y14.028
X12.32 Y13.916
X12.23 Y13.796
X12.151 Y13.668
X12.084 Y13.534
X12.03 Y13.394
X11.991 Y13.25
X11.965 Y13.102
X11.952 Y12.952
X11.953 Y12.802
X11.966 Y12.653
X11.992 Y12.505
X12.031 Y12.36
X12.083 Y12.22
X12.149 Y12.085
X12.227 Y11.957
X12.317 Y11.837
X12.417 Y11.725
X12.526 Y11.621
X12.643 Y11.528
X12.768 Y11.445
X12.9 Y11.374
X13.038 Y11.314
X13.181 Y11.269
X13.327 Y11.238
X13.476 Y11.22
X13.626 Y11.215
X13.776 Y11.222
X13.925 Y11.243
X14.071 Y11.276
X14.214 Y11.321
X14.352 Y11.381
X14.483 Y11.453
X14.607 Y11.538
X14.723 Y11.632
X14.831 Y11.736
X14.93 Y11.849
X15.02 Y11.969
X15.1 Y12.096
X15.169 Y12.229
X15.227 Y12.367
X15.272 Y12.511
X15.303 Y12.657
X15.323 Y12.806
X15.33 Y12.956
X15.325 Y13.106
X15.308 Y13.255
X15.278 Y13.402
X15.253 Y13.489
X15.203 Y13.631
X15.141 Y13.767
X15.066 Y13.897
X14.979 Y14.02
X14.883 Y14.135
X14.778 Y14.241
X14.664 Y14.339
X14.542 Y14.426
X14.412 Y14.503
X14.277 Y14.567
X14.137 Y14.62
X13.992 Y14.66
X13.845 Y14.688
X13.695 Y14.703
X13.544 Y14.707
X13.394 Y14.698
X13.245 Y14.677
X13.099 Y14.644
X12.956 Y14.599
X12.817 Y14.542
X12.684 Y14.473
X12.557 Y14.393
X12.436 Y14.303
X12.323 Y14.203
X12.217 Y14.093
X12.122 Y13.977
X12.037 Y13.854
X11.962 Y13.724
X11.898 Y13.588
X11.846 Y13.448
X11.806 Y13.303
X11.778 Y13.155
X11.762 Y13.003
X11.758 Y12.849
X11.766 Y12.694
X11.787 Y12.545
X11.819 Y12.399
X11.862 Y12.255
X11.918 Y12.116
X11.986 Y11.982
X12.065 Y11.854
X12.155 Y11.731
X12.255 Y11.614
X12.366 Y11.505
X12.485 Y11.404
X12.612 Y11.315
X12.74 Y11.238
X12.875 Y11.172
X13.015 Y11.118
X13.159 Y11.076
X13.308 Y11.046
X13.461 Y11.028
X13.617 Y11.022
X13.773 Y11.028
X13.928 Y11.047
X14.079 Y11.078
X14.223 Y11.12
X14.363 Y11.173
X14.498 Y11.239
X14.627 Y11.316
X14.753 Y11.406
X14.875 Y11.509
X14.991 Y11.623
X15.098 Y11.748
X15.194 Y11.881
X15.279 Y12.018
X15.349 Y12.156
X15.406 Y12.297
X15.453 Y12.444
X15.489 Y12.597
X15.512 Y12.756
X15.523 Y12.917
X15.521 Y13.08
X15.506 Y13.241
X15.48 Y13.389
X15.439 Y13.544
X15.388 Y13.687
X15.327 Y13.825
X15.254 Y13.959
X15.169 Y14.088
X15.073 Y14.213
X14.967 Y14.329
X14.855 Y14.433
X14.734 Y14.529
X14.605 Y14.615
X14.471 Y14.69
X14.332 Y14.754
X14.186 Y14.807
X14.034 Y14.848
X13.877 Y14.878
X13.714 Y14.896
X13.55 Y14.901
X13.387 Y14.892
X13.226 Y14.87
X13.068 Y14.836
X12.915 Y14.79
X12.768 Y14.732
X12.626 Y14.663
X12.488 Y14.581
X12.354 Y14.486
X12.227 Y14.38
X12.109 Y14.264
X12.002 Y14.14
X11.905 Y14.009
X11.82 Y13.871
X11.747 Y13.729
X11.687 Y13.585
X11.639 Y13.434
X11.601 Y13.275
X11.576 Y13.11
X11.564 Y12.942
X11.565 Y12.772
X11.58 Y12.605
X11.608 Y12.444
X11.647 Y12.288
X11.699 Y12.138
X11.762 Y11.992
X11.839 Y11.848
X11.929 Y11.709
X12.031 Y11.575
X12.144 Y11.449
X12.268 Y11.331
X12.401 Y11.224
X12.538 Y11.131
X12.677 Y11.052
X12.819 Y10.985
X12.968 Y10.93
X13.124 Y10.885
X13.288 Y10.853
X13.455 Y10.834
X13.626 Y10.827
X13.797 Y10.835
X13.966 Y10.856
X14.13 Y10.891
X14.286 Y10.937
X14.433 Y10.993
X14.575 Y11.061
X14.717 Y11.143
X14.856 Y11.24
X14.99 Y11.35
X15.117 Y11.472
X15.235 Y11.606
X15.341 Y11.748
X15.434 Y11.896
X15.513 Y12.048
X15.58 Y12.205
X15.634 Y12.368
X15.675 Y12.536
X15.703 Y12.709
X15.717 Y12.886
Y13.063
X15.703 Y13.233
X15.676 Y13.402
X15.636 Y13.566
X15.582 Y13.726
X15.517 Y13.88
X15.438 Y14.03
X15.347 Y14.175
X15.244 Y14.312
X15.131 Y14.44
X15.009 Y14.558
X14.877 Y14.666
X14.737 Y14.763
X14.59 Y14.848
X14.437 Y14.921
X14.277 Y14.982
X14.11 Y15.031
X13.938 Y15.067
X13.761 Y15.089
X13.583 Y15.096
X13.405 Y15.09
X13.228 Y15.069
X13.055 Y15.035
X12.887 Y14.987
X12.723 Y14.925
X12.564 Y14.851
X12.41 Y14.763
X12.262 Y14.662
X12.122 Y14.549
X11.992 Y14.425
X11.872 Y14.292
X11.764 Y14.149
X11.669 Y14
X11.586 Y13.846
X11.517 Y13.686
X11.46 Y13.519
X11.416 Y13.345
X11.385 Y13.166
X11.369 Y12.983
X11.368 Y12.8
X11.381 Y12.619
X11.408 Y12.442
X11.449 Y12.27
X11.503 Y12.102
X11.571 Y11.938
X11.653 Y11.779
X11.749 Y11.625
X11.858 Y11.477
X11.979 Y11.338
X12.111 Y11.208
X12.253 Y11.09
X12.399 Y10.987
X12.551 Y10.897
X12.709 Y10.82
X12.874 Y10.755
X13.046 Y10.703
X13.223 Y10.665
X13.406 Y10.641
X13.59 Y10.631
X13.776 Y10.636
X13.96 Y10.657
X14.138 Y10.691
X14.31 Y10.738
X14.475 Y10.798
X14.636 Y10.872
X14.794 Y10.961
X14.948 Y11.064
X15.095 Y11.181
X15.234 Y11.311
X15.363 Y11.453
X15.48 Y11.604
X15.584 Y11.762
X15.674 Y11.928
X15.75 Y12.099
X15.812 Y12.277
X15.861 Y12.461
X15.894 Y12.649
X15.913 Y12.84
X15.916 Y13.029
X15.903 Y13.217
X15.876 Y13.402
X15.835 Y13.583
X15.779 Y13.759
X15.71 Y13.93
X15.627 Y14.096
X15.53 Y14.255
X15.42 Y14.406
X15.299 Y14.548
X15.167 Y14.679
X15.025 Y14.799
X14.875 Y14.908
X14.716 Y15.003
X14.549 Y15.086
X14.375 Y15.156
X14.193 Y15.213
X14.007 Y15.255
X13.816 Y15.282
X13.623 Y15.293
X13.429 Y15.289
X13.237 Y15.27
X13.048 Y15.235
X12.863 Y15.186
X12.683 Y15.122
X12.508 Y15.043
X12.338 Y14.95
X12.176 Y14.843
X12.022 Y14.723
X11.878 Y14.591
X11.746 Y14.448
X11.626 Y14.296
X11.519 Y14.135
X11.427 Y13.968
X11.347 Y13.793
X11.282 Y13.611
X11.231 Y13.423
X11.194 Y13.229
X11.174 Y13.032
X11.169 Y12.834
X11.18 Y12.638
X11.207 Y12.445
X11.248 Y12.256
X11.305 Y12.071
X11.376 Y11.891
X11.463 Y11.715
X11.564 Y11.546
X11.669 Y11.399
X11.671 Y11.396
X11.73 Y11.33
X12.025 Y11.035
X12.083 Y10.983
X12.201 Y10.889
X12.345 Y10.791
X12.505 Y10.701
X12.677 Y10.621
X12.857 Y10.555
X13.045 Y10.502
X13.239 Y10.464
X13.438 Y10.442
X13.638 Y10.435
X13.838 Y10.445
X14.036 Y10.47
X14.227 Y10.511
X14.413 Y10.566
X14.593 Y10.636
X14.769 Y10.721
X14.94 Y10.821
X15.105 Y10.936
X15.262 Y11.066
X15.41 Y11.21
X15.546 Y11.366
X15.669 Y11.531
X15.777 Y11.704
X15.871 Y11.886
X15.95 Y12.074
X16.014 Y12.268
X16.063 Y12.469
X16.095 Y12.673
X16.111 Y12.878
X16.11 Y13.083
X16.093 Y13.286
X16.06 Y13.486
X16.011 Y13.681
X15.947 Y13.871
X15.868 Y14.056
X15.852 Y14.084
X15.839 Y14.1
X14.867 Y15.073
X14.755 Y15.173
X14.628 Y15.253
X14.492 Y15.316
X14.341 Y15.372
X14.159 Y15.423
X13.961 Y15.461
X13.756 Y15.484
X13.549 Y15.49
X13.34 Y15.48
X13.134 Y15.453
X12.931 Y15.409
X12.732 Y15.35
X12.539 Y15.274
X12.351 Y15.183
X12.171 Y15.077
X11.998 Y14.956
X11.836 Y14.822
X11.685 Y14.675
X11.547 Y14.516
X11.423 Y14.348
X11.313 Y14.172
X11.218 Y13.987
X11.137 Y13.795
X11.072 Y13.595
X11.023 Y13.389
X10.99 Y13.179
X10.974 Y12.966
X10.975 Y12.753
X10.993 Y12.542
X11.028 Y12.335
X11.079 Y12.132
X11.098 Y12.076
X11.103 Y12.064
X11.109 Y12.053
X11.117 Y12.043
X11.639 Y11.432
X11.671 Y11.396
X11.681 Y11.387 Z-0.484
X11.685 Y11.382 Z-0.47
G0 Z5
X14.825 Y15.017
Z-0.39
G1 Z-0.44 F1000
X14.829 Y15.022 Z-0.465
X14.84 Y15.037 Z-0.483
X14.855 Y15.057 Z-0.49
X14.867 Y15.073
X14.511 Y15.429
X14.399 Y15.529
X14.261 Y15.588
X14.116 Y15.627
X13.934 Y15.661
X13.73 Y15.682
X13.514 Y15.687
X13.295 Y15.674
X13.075 Y15.643
X12.858 Y15.595
X12.645 Y15.529
X12.437 Y15.446
X12.236 Y15.346
X12.042 Y15.23
X11.858 Y15.098
X11.685 Y14.952
X11.525 Y14.793
X11.378 Y14.622
X11.246 Y14.44
X11.129 Y14.249
X11.028 Y14.048
X10.943 Y13.84
X10.874 Y13.624
X10.823 Y13.402
X10.79 Y13.176
X10.775 Y12.948
X10.778 Y12.72
X10.799 Y12.494
X10.81 Y12.432
X10.814 Y12.418
X10.819 Y12.405
X10.826 Y12.393
X10.837 Y12.377
X10.874 Y12.326
X11.117 Y12.043
X11.132 Y12.032
X11.152 Y12.017 Z-0.483
X11.167 Y12.006 Z-0.465
X11.173 Y12.002 Z-0.44
G0 Z5
X14.469 Y15.373
Z-0.39
G1 Z-0.44 F1000
X14.473 Y15.378 Z-0.465
X14.484 Y15.393 Z-0.483
X14.499 Y15.413 Z-0.49
X14.511 Y15.429
X14.237 Y15.702
X14.126 Y15.803
X13.981 Y15.842
X13.833 Y15.867
X13.641 Y15.881
X13.422 Y15.88
X13.193 Y15.861
X12.961 Y15.822
X12.731 Y15.764
X12.504 Y15.688
X12.284 Y15.593
X12.071 Y15.48
X11.868 Y15.351
X11.675 Y15.205
X11.494 Y15.044
X11.327 Y14.869
X11.175 Y14.682
X11.039 Y14.484
X10.919 Y14.276
X10.816 Y14.058
X10.731 Y13.832
X10.663 Y13.598
X10.615 Y13.359
X10.585 Y13.117
X10.576 Y12.873
X10.579 Y12.797
X10.581 Y12.78
X10.586 Y12.764
X10.594 Y12.749
X10.671 Y12.624
X10.804 Y12.425
X10.826 Y12.393
X10.84 Y12.38
X10.859 Y12.363 Z-0.483
X10.872 Y12.35 Z-0.465
X10.877 Y12.346 Z-0.44
G0 Z5
X14.195 Y15.646
Z-0.39
G1 Z-0.44 F1000
X14.199 Y15.652 Z-0.465
X14.21 Y15.666 Z-0.483
X14.225 Y15.686 Z-0.49
X14.237 Y15.702
X14.039 Y15.901
X13.927 Y16.001
X13.785 Y16.049
X13.636 Y16.069
X13.483 Y16.075
X13.282 Y16.067
X13.05 Y16.039
X12.809 Y15.99
X12.568 Y15.921
X12.33 Y15.831
X12.098 Y15.722
X11.876 Y15.594
X11.663 Y15.448
X11.463 Y15.285
X11.277 Y15.107
X11.106 Y14.915
X10.951 Y14.711
X10.813 Y14.494
X10.693 Y14.268
X10.592 Y14.031
X10.509 Y13.787
X10.446 Y13.535
X10.403 Y13.279
X10.389 Y13.118
X10.39 Y13.097
X10.394 Y13.076
X10.404 Y13.057
X10.594 Y12.749
X10.607 Y12.735
X10.625 Y12.717 Z-0.483
X10.638 Y12.704 Z-0.465
X10.643 Y12.7 Z-0.44
G0 Z5
X13.997 Y15.845
Z-0.39
G1 Z-0.44 F1000
X14.001 Y15.85 Z-0.465
X14.012 Y15.865 Z-0.483
X14.027 Y15.885 Z-0.49
X14.039 Y15.901
X13.816 Y16.124
X13.704 Y16.224
X13.558 Y16.256
X13.408 Y16.264
X13.214 Y16.256
X12.988 Y16.229
X12.753 Y16.182
X12.508 Y16.112
X12.255 Y16.017
X12.009 Y15.901
X11.772 Y15.765
X11.547 Y15.61
X11.334 Y15.438
X11.136 Y15.249
X10.954 Y15.045
X10.789 Y14.828
X10.642 Y14.598
X10.515 Y14.358
X10.406 Y14.107
X10.318 Y13.847
X10.251 Y13.58
X10.221 Y13.402
X10.219 Y13.379
X10.223 Y13.357
X10.232 Y13.336
X10.242 Y13.319
X10.404 Y13.057
X10.417 Y13.043
X10.435 Y13.025 Z-0.483
X10.448 Y13.012 Z-0.465
X10.453 Y13.008 Z-0.44
G0 Z5
X13.774 Y16.068
Z-0.39
G1 Z-0.44 F1000
X13.778 Y16.073 Z-0.465
X13.789 Y16.088 Z-0.483
X13.804 Y16.108 Z-0.49
X13.816 Y16.124
X13.617 Y16.322
X13.562 Y16.373
X13.423 Y16.43
X13.274 Y16.445
X13.115 Y16.439
X12.91 Y16.415
X12.677 Y16.368
X12.443 Y16.301
X12.178 Y16.201
X11.918 Y16.079
X11.667 Y15.935
X11.428 Y15.772
X11.203 Y15.589
X10.993 Y15.389
X10.8 Y15.174
X10.626 Y14.943
X10.47 Y14.7
X10.335 Y14.445
X10.22 Y14.18
X10.126 Y13.905
X10.07 Y13.683
X10.067 Y13.658
X10.071 Y13.633
X10.08 Y13.61
X10.211 Y13.373
X10.232 Y13.336
X10.245 Y13.322
X10.262 Y13.303 Z-0.483
X10.275 Y13.29 Z-0.465
X10.279 Y13.285 Z-0.44
G0 Z5
X13.574 Y16.267
Z-0.39
G1 Z-0.44 F1000
X13.579 Y16.273 Z-0.465
X13.59 Y16.287 Z-0.483
X13.605 Y16.307 Z-0.49
X13.617 Y16.322
X13.518 Y16.425
X13.45 Y16.496
X13.396 Y16.548
X13.259 Y16.608
X13.109 Y16.621
X12.96 Y16.614
X12.766 Y16.587
X12.539 Y16.536
X12.28 Y16.455
X12.011 Y16.346
X11.743 Y16.213
X11.484 Y16.056
X11.236 Y15.878
X11.004 Y15.68
X10.787 Y15.465
X10.589 Y15.232
X10.411 Y14.985
X10.253 Y14.725
X10.116 Y14.452
X10.001 Y14.168
X9.942 Y13.98
X9.938 Y13.957
X9.939 Y13.934
X9.945 Y13.912
X10.042 Y13.68
X10.08 Y13.61
X10.093 Y13.596
X10.11 Y13.577 Z-0.483
X10.122 Y13.564 Z-0.465
X10.127 Y13.559 Z-0.44
G0 Z5
X13.407 Y16.442
Z-0.39
G1 Z-0.44 F1000
X13.411 Y16.447 Z-0.465
X13.423 Y16.462 Z-0.483
X13.438 Y16.481 Z-0.49
X13.45 Y16.496
X13.418 Y16.53
X13.369 Y16.596
X13.343 Y16.641
X13.304 Y16.706
X13.174 Y16.781
X13.026 Y16.801
X12.876 Y16.795
X12.688 Y16.77
X12.469 Y16.722
X12.232 Y16.65
X11.951 Y16.539
X11.67 Y16.4
X11.396 Y16.237
X11.134 Y16.052
X10.888 Y15.845
X10.659 Y15.62
X10.449 Y15.377
X10.259 Y15.118
X10.091 Y14.844
X9.945 Y14.558
X9.826 Y14.271
X9.82 Y14.246
Y14.219
X9.827 Y14.194
X9.945 Y13.912
X9.957 Y13.896
X9.971 Y13.876 Z-0.483
X9.982 Y13.861 Z-0.465
X9.986 Y13.855 Z-0.44
G0 Z5
X13.286 Y16.601
Z-0.39
G1 Z-0.44 F1000
X13.291 Y16.605 Z-0.465
X13.306 Y16.615 Z-0.483
X13.327 Y16.63 Z-0.49
X13.343 Y16.641
X13.319 Y16.687
X13.28 Y16.794
X13.267 Y16.83
X13.215 Y16.883
X13.086 Y16.96
X12.937 Y16.981
X12.787 Y16.976
X12.604 Y16.951
X12.386 Y16.904
X12.158 Y16.835
X11.877 Y16.724
X11.581 Y16.58
X11.293 Y16.409
X11.018 Y16.215
X10.759 Y15.999
X10.518 Y15.762
X10.297 Y15.507
X10.097 Y15.236
X9.92 Y14.949
X9.766 Y14.649
X9.717 Y14.531
X9.71 Y14.505
X9.711 Y14.479
X9.717 Y14.454
X9.827 Y14.194
X9.838 Y14.178
X9.853 Y14.158 Z-0.483
X9.863 Y14.143 Z-0.465
X9.867 Y14.138 Z-0.44
G0 Z5
X13.215 Y16.77
Z-0.39
G1 Z-0.44 F1000
X13.221 Y16.772 Z-0.465
X13.238 Y16.779 Z-0.483
X13.262 Y16.787 Z-0.49
X13.28 Y16.794
X13.258 Y16.894
X13.253 Y16.924
X13.245 Y16.96
X13.207 Y17.025
X13.09 Y17.119
X12.945 Y17.156
X12.795 Y17.163
X12.645 Y17.152
X12.457 Y17.121
X12.236 Y17.066
X11.967 Y16.977
X11.672 Y16.851
X11.372 Y16.694
X11.078 Y16.509
X10.797 Y16.298
X10.647 Y16.166
X10.401 Y15.928
X10.168 Y15.665
X9.956 Y15.382
X9.767 Y15.084
X9.617 Y14.797
X9.614 Y14.791
X9.607 Y14.768
X9.606 Y14.744
X9.611 Y14.72
X9.645 Y14.626
X9.717 Y14.454
X9.729 Y14.438
X9.744 Y14.418 Z-0.483
X9.754 Y14.403 Z-0.465
X9.758 Y14.397 Z-0.44
G0 Z5
X13.187 Y16.902
Z-0.39
G1 Z-0.44 F1000
X13.193 Y16.904 Z-0.465
X13.211 Y16.91 Z-0.483
X13.234 Y16.918 Z-0.49
X13.253 Y16.924
X13.224 Y17.092
X13.216 Y17.129
X13.178 Y17.194
X13.066 Y17.293
X12.922 Y17.336
X12.773 Y17.348
X12.623 Y17.34
X12.449 Y17.317
X12.254 Y17.276
X11.994 Y17.198
X11.697 Y17.082
X11.387 Y16.931
X11.078 Y16.749
X10.779 Y16.539
X10.526 Y16.329
X10.37 Y16.176
X10.147 Y15.949
X9.923 Y15.681
X9.714 Y15.386
X9.612 Y15.213
X9.532 Y15.065
X9.523 Y15.04
X9.52 Y15.014
X9.525 Y14.987
X9.611 Y14.72
X9.621 Y14.704
X9.634 Y14.682 Z-0.483
X9.643 Y14.667 Z-0.465
X9.647 Y14.661 Z-0.44
G0 Z5
X13.158 Y17.071
Z-0.39
G1 Z-0.44 F1000
X13.164 Y17.073 Z-0.465
X13.182 Y17.079 Z-0.483
X13.206 Y17.086 Z-0.49
X13.224 Y17.092
X13.191 Y17.291
X13.183 Y17.327
X13.091 Y17.446
X12.954 Y17.506
X12.806 Y17.53
X12.656 Y17.533
X12.506 Y17.521
X12.322 Y17.492
X12.081 Y17.433
X11.795 Y17.338
X11.484 Y17.206
X11.165 Y17.039
X10.986 Y16.927
X10.685 Y16.719
X10.419 Y16.501
X10.104 Y16.198
X9.853 Y15.916
X9.627 Y15.616
X9.464 Y15.359
X9.452 Y15.334
X9.448 Y15.308
X9.451 Y15.281
X9.519 Y15.007
X9.525 Y14.987
X9.535 Y14.971
X9.548 Y14.949 Z-0.483
X9.557 Y14.933 Z-0.465
X9.56 Y14.928 Z-0.44
G0 Z5
X13.125 Y17.27
Z-0.39
G1 Z-0.44 F1000
X13.131 Y17.272 Z-0.465
X13.149 Y17.277 Z-0.483
X13.172 Y17.285 Z-0.49
X13.191 Y17.291
X13.163 Y17.458
X13.147 Y17.532
X13.047 Y17.643
X12.907 Y17.697
X12.758 Y17.719
X12.608 Y17.721
X12.442 Y17.708
X12.228 Y17.672
X11.983 Y17.612
X11.824 Y17.558
X11.524 Y17.443
X11.199 Y17.288
X10.918 Y17.124
X10.559 Y16.874
X10.288 Y16.652
X9.972 Y16.349
X9.715 Y16.062
X9.478 Y15.751
X9.398 Y15.627
X9.386 Y15.602
X9.382 Y15.576
X9.385 Y15.549
X9.451 Y15.281
X9.46 Y15.264
X9.471 Y15.241 Z-0.483
X9.48 Y15.225 Z-0.465
X9.483 Y15.219 Z-0.44
G0 Z5
X13.097 Y17.437
Z-0.39
G1 Z-0.44 F1000
X13.103 Y17.439 Z-0.465
X13.121 Y17.445 Z-0.483
X13.145 Y17.452 Z-0.49
X13.163 Y17.458
X13.13 Y17.657
X13.122 Y17.693
X13.078 Y17.754
X12.962 Y17.849
X12.819 Y17.894
X12.67 Y17.91
X12.52 Y17.908
X12.33 Y17.889
X12.1 Y17.846
X11.873 Y17.785
X11.54 Y17.666
X11.202 Y17.514
X10.898 Y17.346
X10.537 Y17.108
X10.23 Y16.867
X9.909 Y16.571
X9.622 Y16.264
X9.368 Y15.943
X9.334 Y15.891
X9.321 Y15.866
X9.317 Y15.839
X9.32 Y15.811
X9.385 Y15.549
X9.393 Y15.531
X9.405 Y15.509 Z-0.483
X9.413 Y15.493 Z-0.465
X9.416 Y15.487 Z-0.44
G0 Z5
X13.064 Y17.636
Z-0.39
G1 Z-0.44 F1000
X13.07 Y17.638 Z-0.465
X13.088 Y17.643 Z-0.483
X13.111 Y17.651 Z-0.49
X13.13 Y17.657
X13.103 Y17.817
X13.087 Y17.891
X12.99 Y18.005
X12.853 Y18.065
X12.705 Y18.093
X12.555 Y18.099
X12.405 Y18.092
X12.197 Y18.066
X11.968 Y18.017
X11.666 Y17.928
X11.335 Y17.8
X11.139 Y17.704
X10.837 Y17.543
X10.472 Y17.307
X10.147 Y17.058
X9.822 Y16.766
X9.521 Y16.452
X9.282 Y16.159
X9.274 Y16.148
X9.262 Y16.124
X9.257 Y16.098
X9.259 Y16.071
X9.273 Y16
X9.32 Y15.811
X9.328 Y15.794
X9.34 Y15.772 Z-0.483
X9.348 Y15.755 Z-0.465
X9.351 Y15.749 Z-0.44
G0 Z5
X13.037 Y17.796
Z-0.39
G1 Z-0.44 F1000
X13.043 Y17.798 Z-0.465
X13.061 Y17.804 Z-0.483
X13.085 Y17.811 Z-0.49
X13.103 Y17.817
X13.07 Y18.016
X13.062 Y18.053
X13.022 Y18.116
X12.91 Y18.215
X12.768 Y18.265
X12.619 Y18.286
X12.469 Y18.289
X12.288 Y18.275
X12.068 Y18.241
X11.789 Y18.175
X11.468 Y18.071
X11.315 Y18.008
X10.973 Y17.848
X10.593 Y17.631
X10.233 Y17.382
X10.063 Y17.245
X9.746 Y16.971
X9.439 Y16.659
X9.223 Y16.407
X9.211 Y16.383
X9.205 Y16.357
X9.206 Y16.331
X9.212 Y16.298
X9.259 Y16.071
X9.267 Y16.053
X9.277 Y16.03 Z-0.483
X9.285 Y16.014 Z-0.465
X9.288 Y16.008 Z-0.44
G0 Z5
X13.004 Y17.995
Z-0.39
G1 Z-0.44 F1000
X13.01 Y17.997 Z-0.465
X13.028 Y18.002 Z-0.483
X13.052 Y18.01 Z-0.49
X13.07 Y18.016
X13.042 Y18.184
X13.026 Y18.258
X12.932 Y18.374
X12.796 Y18.437
X12.649 Y18.468
X12.499 Y18.478
X12.349 Y18.475
X12.151 Y18.454
X11.892 Y18.406
X11.584 Y18.323
X11.324 Y18.23
X10.937 Y18.054
X10.562 Y17.847
X10.197 Y17.605
X9.852 Y17.336
X9.531 Y17.039
X9.378 Y16.882
X9.182 Y16.668
X9.168 Y16.644
X9.161 Y16.617
X9.162 Y16.59
X9.206 Y16.331
X9.214 Y16.313
X9.223 Y16.29 Z-0.483
X9.231 Y16.273 Z-0.465
X9.233 Y16.267 Z-0.44
G0 Z5
X12.976 Y18.163
Z-0.39
G1 Z-0.44 F1000
X12.982 Y18.165 Z-0.465
X13 Y18.171 Z-0.483
X13.024 Y18.179 Z-0.49
X13.042 Y18.184
X13.009 Y18.383
X12.993 Y18.456
X12.896 Y18.571
X12.758 Y18.631
X12.611 Y18.66
X12.462 Y18.67
X12.286 Y18.665
X12.058 Y18.64
X11.803 Y18.591
X11.627 Y18.542
X11.362 Y18.457
X11 Y18.308
X10.618 Y18.114
X10.245 Y17.885
X9.891 Y17.628
X9.592 Y17.378
X9.282 Y17.069
X9.146 Y16.925
X9.129 Y16.899
X9.12 Y16.87
Y16.84
X9.162 Y16.59
X9.17 Y16.572
X9.179 Y16.549 Z-0.483
X9.186 Y16.532 Z-0.465
X9.189 Y16.526 Z-0.44
G0 Z5
X12.943 Y18.362
Z-0.39
G1 Z-0.44 F1000
X12.949 Y18.364 Z-0.465
X12.967 Y18.37 Z-0.483
X12.99 Y18.377 Z-0.49
X13.009 Y18.383
X12.976 Y18.582
X12.968 Y18.618
X12.928 Y18.681
X12.816 Y18.781
X12.674 Y18.832
X12.526 Y18.855
X12.376 Y18.861
X12.177 Y18.851
X11.937 Y18.82
X11.696 Y18.769
X11.373 Y18.672
X11.006 Y18.53
X10.615 Y18.341
X10.238 Y18.119
X9.878 Y17.871
X9.551 Y17.61
X9.232 Y17.31
X9.104 Y17.172
X9.087 Y17.147
X9.079 Y17.118
Y17.088
X9.12 Y16.84
X9.128 Y16.822
X9.138 Y16.799 Z-0.483
X9.145 Y16.782 Z-0.465
X9.147 Y16.776 Z-0.44
G0 Z5
X12.91 Y18.561
Z-0.39
G1 Z-0.44 F1000
X12.916 Y18.563 Z-0.465
X12.934 Y18.568 Z-0.483
X12.957 Y18.576 Z-0.49
X12.976 Y18.582
X12.943 Y18.78
X12.935 Y18.817
X12.845 Y18.937
X12.71 Y19.003
X12.564 Y19.037
X12.414 Y19.05
X12.26 Y19.051
X12.044 Y19.034
X11.802 Y18.996
X11.501 Y18.923
X11.15 Y18.807
X10.747 Y18.636
X10.361 Y18.43
X9.99 Y18.199
X9.637 Y17.94
X9.473 Y17.804
X9.16 Y17.522
X9.064 Y17.421
X9.046 Y17.396
X9.037 Y17.366
X9.038 Y17.336
X9.079 Y17.088
X9.087 Y17.07
X9.096 Y17.047 Z-0.483
X9.103 Y17.03 Z-0.465
X9.106 Y17.024 Z-0.44
G0 Z5
X12.877 Y18.759
Z-0.39
G1 Z-0.44 F1000
X12.883 Y18.761 Z-0.465
X12.9 Y18.767 Z-0.483
X12.924 Y18.774 Z-0.49
X12.943 Y18.78
X12.915 Y18.946
X12.899 Y19.02
X12.805 Y19.136
X12.668 Y19.199
X12.522 Y19.23
X12.372 Y19.243
X12.185 Y19.242
X11.959 Y19.222
X11.686 Y19.176
X11.518 Y19.133
X11.182 Y19.031
X10.798 Y18.88
X10.412 Y18.691
X10.036 Y18.468
X9.854 Y18.346
X9.5 Y18.088
X9.168 Y17.804
X9.031 Y17.674
X9.021 Y17.662
X9.005 Y17.637
X8.997 Y17.609
Y17.579
X9.038 Y17.336
X9.045 Y17.318
X9.055 Y17.295 Z-0.483
X9.062 Y17.278 Z-0.465
X9.065 Y17.271 Z-0.44
G0 Z5
X12.849 Y18.925
Z-0.39
G1 Z-0.44 F1000
X12.855 Y18.927 Z-0.465
X12.873 Y18.933 Z-0.483
X12.897 Y18.94 Z-0.49
X12.915 Y18.946
X12.882 Y19.146
X12.866 Y19.22
X12.767 Y19.333
X12.63 Y19.393
X12.483 Y19.423
X12.333 Y19.435
X12.138 Y19.434
X11.906 Y19.415
X11.675 Y19.377
X11.33 Y19.291
X10.964 Y19.168
X10.563 Y18.993
X10.369 Y18.892
X9.988 Y18.677
X9.625 Y18.433
X9.278 Y18.166
X9.128 Y18.034
X9 Y17.917
X8.984 Y17.9
X8.966 Y17.875
X8.957 Y17.846
X8.958 Y17.815
X8.997 Y17.579
X9.005 Y17.561
X9.014 Y17.538 Z-0.483
X9.021 Y17.521 Z-0.465
X9.024 Y17.515 Z-0.44
G0 Z5
X12.816 Y19.125
Z-0.39
G1 Z-0.44 F1000
X12.822 Y19.127 Z-0.465
X12.839 Y19.133 Z-0.483
X12.863 Y19.14 Z-0.49
X12.882 Y19.146
X12.849 Y19.345
X12.841 Y19.381
X12.8 Y19.444
X12.687 Y19.544
X12.547 Y19.595
X12.399 Y19.62
X12.247 Y19.629
X12.042 Y19.625
X11.812 Y19.601
X11.508 Y19.546
X11.32 Y19.495
X10.97 Y19.383
X10.566 Y19.217
X10.176 Y19.019
X9.802 Y18.793
X9.439 Y18.548
X9.099 Y18.274
X8.96 Y18.151
X8.945 Y18.135
X8.928 Y18.11
X8.918 Y18.08
X8.919 Y18.049
X8.958 Y17.815
X8.965 Y17.797
X8.975 Y17.774 Z-0.483
X8.982 Y17.757 Z-0.465
X8.985 Y17.751 Z-0.44
G0 Z5
X12.782 Y19.324
Z-0.39
G1 Z-0.44 F1000
X12.789 Y19.326 Z-0.465
X12.806 Y19.331 Z-0.483
X12.83 Y19.339 Z-0.49
X12.849 Y19.345
X12.823 Y19.503
X12.807 Y19.576
X12.719 Y19.698
X12.585 Y19.765
X12.439 Y19.801
X12.29 Y19.818
X12.129 Y19.822
X11.915 Y19.811
X11.636 Y19.774
X11.375 Y19.718
X10.98 Y19.599
X10.573 Y19.44
X10.179 Y19.249
X9.8 Y19.03
X9.435 Y18.789
X9.26 Y18.659
X8.961 Y18.42
X8.91 Y18.372
X8.89 Y18.346
X8.88 Y18.316
Y18.283
X8.919 Y18.049
X8.926 Y18.031
X8.936 Y18.008 Z-0.483
X8.943 Y17.991 Z-0.465
X8.946 Y17.985 Z-0.44
G0 Z5
X12.756 Y19.481
Z-0.39
G1 Z-0.44 F1000
X12.763 Y19.484 Z-0.465
X12.78 Y19.489 Z-0.483
X12.804 Y19.497 Z-0.49
X12.823 Y19.503
X12.789 Y19.704
X12.773 Y19.777
X12.682 Y19.896
X12.547 Y19.961
X12.401 Y19.996
X12.252 Y20.012
X12.064 Y20.015
X11.818 Y20
X11.555 Y19.963
X11.287 Y19.903
X10.87 Y19.772
X10.464 Y19.61
X10.071 Y19.418
X9.692 Y19.199
X9.327 Y18.957
X8.98 Y18.7
X8.866 Y18.6
X8.849 Y18.575
X8.841 Y18.546
Y18.516
X8.88 Y18.283
X8.887 Y18.265
X8.897 Y18.242 Z-0.483
X8.904 Y18.225 Z-0.465
X8.907 Y18.219 Z-0.44
G0 Z5
X12.723 Y19.683
Z-0.39
G1 Z-0.44 F1000
X12.729 Y19.685 Z-0.465
X12.746 Y19.69 Z-0.483
X12.77 Y19.698 Z-0.49
X12.789 Y19.704
X12.756 Y19.903
X12.74 Y19.976
X12.646 Y20.093
X12.51 Y20.156
X12.364 Y20.19
X12.213 Y20.205
X12.006 Y20.209
X11.767 Y20.195
X11.521 Y20.16
X11.244 Y20.098
X10.826 Y19.969
X10.419 Y19.809
X10.025 Y19.62
X9.644 Y19.404
X9.277 Y19.166
X8.923 Y18.909
X8.837 Y18.838
X8.815 Y18.811
X8.803 Y18.779
Y18.744
X8.841 Y18.516
X8.848 Y18.498
X8.858 Y18.475 Z-0.483
X8.865 Y18.458 Z-0.465
X8.868 Y18.452 Z-0.44
G0 Z5
X12.69 Y19.881
Z-0.39
G1 Z-0.44 F1000
X12.696 Y19.883 Z-0.465
X12.713 Y19.889 Z-0.483
X12.737 Y19.897 Z-0.49
X12.756 Y19.903
X12.723 Y20.098
X12.707 Y20.172
X12.612 Y20.288
X12.476 Y20.35
X12.33 Y20.383
X12.167 Y20.4
X11.957 Y20.404
X11.72 Y20.39
X11.48 Y20.356
X11.193 Y20.292
X10.775 Y20.162
X10.367 Y20.004
X9.971 Y19.817
X9.589 Y19.605
X9.22 Y19.369
X8.864 Y19.116
X8.8 Y19.062
X8.778 Y19.035
X8.766 Y19.003
Y18.969
X8.803 Y18.744
X8.81 Y18.726
X8.82 Y18.703 Z-0.483
X8.827 Y18.687 Z-0.465
X8.83 Y18.68 Z-0.44
G0 Z5
X12.657 Y20.077
Z-0.39
G1 Z-0.44 F1000
X12.663 Y20.079 Z-0.465
X12.681 Y20.085 Z-0.483
X12.705 Y20.092 Z-0.49
X12.723 Y20.098
X12.69 Y20.3
X12.674 Y20.373
X12.574 Y20.485
X12.437 Y20.546
X12.29 Y20.578
X12.122 Y20.595
X11.911 Y20.599
X11.677 Y20.585
X11.436 Y20.551
X11.266 Y20.513
X10.893 Y20.414
X10.48 Y20.269
X10.078 Y20.097
X9.689 Y19.895
X9.313 Y19.672
X8.951 Y19.427
X8.834 Y19.341
X8.765 Y19.285
X8.742 Y19.259
X8.729 Y19.226
Y19.191
X8.766 Y18.969
X8.773 Y18.951
X8.783 Y18.928 Z-0.483
X8.79 Y18.911 Z-0.465
X8.792 Y18.905 Z-0.44
G0 Z5
X12.623 Y20.279
Z-0.39
G1 Z-0.44 F1000
X12.63 Y20.281 Z-0.465
X12.647 Y20.286 Z-0.483
X12.671 Y20.294 Z-0.49
X12.69 Y20.3
X12.662 Y20.468
X12.646 Y20.542
X12.56 Y20.664
X12.425 Y20.731
X12.28 Y20.767
X12.116 Y20.787
X11.925 Y20.795
X11.713 Y20.787
X11.466 Y20.757
X11.139 Y20.691
X10.719 Y20.569
X10.309 Y20.416
X9.909 Y20.239
X9.525 Y20.03
X9.336 Y19.919
X8.968 Y19.689
X8.847 Y19.599
X8.728 Y19.508
X8.72 Y19.501
X8.701 Y19.475
X8.691 Y19.445
Y19.413
X8.729 Y19.191
X8.736 Y19.173
X8.746 Y19.15 Z-0.483
X8.753 Y19.133 Z-0.465
X8.755 Y19.127 Z-0.44
G0 Z5
X12.595 Y20.447
Z-0.39
G1 Z-0.44 F1000
X12.602 Y20.449 Z-0.465
X12.619 Y20.455 Z-0.483
X12.643 Y20.462 Z-0.49
X12.662 Y20.468
X12.629 Y20.667
X12.613 Y20.74
X12.524 Y20.861
X12.389 Y20.926
X12.243 Y20.962
X12.086 Y20.982
X11.894 Y20.99
X11.665 Y20.981
X11.428 Y20.953
X11.109 Y20.89
X10.688 Y20.769
X10.278 Y20.619
X9.876 Y20.445
X9.489 Y20.242
X9.113 Y20.018
X8.943 Y19.909
X8.745 Y19.772
X8.69 Y19.727
X8.667 Y19.701
X8.655 Y19.668
Y19.633
X8.691 Y19.413
X8.699 Y19.395
X8.709 Y19.372 Z-0.483
X8.716 Y19.355 Z-0.465
X8.718 Y19.349 Z-0.44
G0 Z5
X12.562 Y20.646
Z-0.39
G1 Z-0.44 F1000
X12.569 Y20.648 Z-0.465
X12.586 Y20.653 Z-0.483
X12.61 Y20.661 Z-0.49
X12.629 Y20.667
X12.595 Y20.865
X12.579 Y20.939
X12.488 Y21.057
X12.352 Y21.122
X12.207 Y21.157
X12.049 Y21.177
X11.847 Y21.185
X11.619 Y21.176
X11.371 Y21.147
X11.188 Y21.109
X10.816 Y21.02
X10.4 Y20.884
X9.995 Y20.718
X9.796 Y20.627
X9.408 Y20.426
X9.032 Y20.202
X8.749 Y20.022
X8.656 Y19.951
X8.632 Y19.925
X8.618 Y19.891
Y19.855
X8.655 Y19.633
X8.662 Y19.615
X8.672 Y19.592 Z-0.483
X8.679 Y19.575 Z-0.465
X8.682 Y19.569 Z-0.44
G0 Z5
X12.529 Y20.844
Z-0.39
G1 Z-0.44 F1000
X12.535 Y20.846 Z-0.465
X12.553 Y20.852 Z-0.483
X12.577 Y20.859 Z-0.49
X12.595 Y20.865
X12.562 Y21.064
X12.546 Y21.137
X12.452 Y21.254
X12.316 Y21.318
X12.17 Y21.353
X12.008 Y21.372
X11.803 Y21.38
X11.568 Y21.371
X11.342 Y21.343
X10.933 Y21.26
X10.513 Y21.138
X10.103 Y20.985
X9.703 Y20.807
X9.317 Y20.601
X8.938 Y20.383
X8.792 Y20.287
X8.667 Y20.204
X8.618 Y20.165
X8.595 Y20.138
X8.582 Y20.106
Y20.07
X8.618 Y19.855
X8.625 Y19.837
X8.635 Y19.814 Z-0.483
X8.642 Y19.797 Z-0.465
X8.645 Y19.791 Z-0.44
G0 Z5
X12.496 Y21.043
Z-0.39
G1 Z-0.44 F1000
X12.502 Y21.045 Z-0.465
X12.52 Y21.051 Z-0.483
X12.544 Y21.058 Z-0.49
X12.562 Y21.064
X12.529 Y21.263
X12.513 Y21.336
X12.417 Y21.451
X12.28 Y21.514
X12.134 Y21.548
X11.969 Y21.568
X11.76 Y21.576
X11.534 Y21.567
X11.291 Y21.537
X11.077 Y21.493
X10.782 Y21.428
X10.364 Y21.299
X9.956 Y21.141
X9.558 Y20.959
X9.175 Y20.749
X8.795 Y20.532
X8.695 Y20.464
X8.572 Y20.377
X8.554 Y20.352
X8.545 Y20.322
Y20.291
X8.582 Y20.07
X8.59 Y20.052
X8.599 Y20.029 Z-0.483
X8.606 Y20.012 Z-0.465
X8.609 Y20.006 Z-0.44
G0 Z5
X12.463 Y21.242
Z-0.39
G1 Z-0.44 F1000
X12.469 Y21.244 Z-0.465
X12.487 Y21.249 Z-0.483
X12.511 Y21.257 Z-0.49
X12.529 Y21.263
X12.496 Y21.461
X12.48 Y21.534
X12.381 Y21.647
X12.245 Y21.709
X12.099 Y21.744
X11.93 Y21.764
X11.723 Y21.772
X11.49 Y21.762
X11.253 Y21.733
X10.825 Y21.646
X10.404 Y21.525
X9.994 Y21.373
X9.593 Y21.198
X9.204 Y20.999
X8.633 Y20.662
X8.55 Y20.604
X8.525 Y20.577
X8.51 Y20.543
X8.509 Y20.506
X8.545 Y20.291
X8.553 Y20.273
X8.562 Y20.25 Z-0.483
X8.569 Y20.233 Z-0.465
X8.572 Y20.227 Z-0.44
G0 Z5
X12.43 Y21.44
Z-0.39
G1 Z-0.44 F1000
X12.436 Y21.442 Z-0.465
X12.454 Y21.448 Z-0.483
X12.477 Y21.455 Z-0.49
X12.496 Y21.461
X12.463 Y21.66
X12.447 Y21.733
X12.346 Y21.844
X12.209 Y21.905
X12.063 Y21.939
X11.894 Y21.96
X11.685 Y21.968
X11.453 Y21.958
X11.213 Y21.929
X10.784 Y21.841
X10.363 Y21.722
X9.953 Y21.572
X9.551 Y21.399
X9.16 Y21.203
X8.781 Y20.983
X8.666 Y20.914
X8.539 Y20.835
X8.51 Y20.81
X8.487 Y20.784
X8.475 Y20.751
X8.474 Y20.717
X8.509 Y20.506
X8.517 Y20.488
X8.527 Y20.465 Z-0.483
X8.534 Y20.448 Z-0.465
X8.536 Y20.442 Z-0.44
G0 Z5
X12.397 Y21.639
Z-0.39
G1 Z-0.44 F1000
X12.403 Y21.641 Z-0.465
X12.42 Y21.646 Z-0.483
X12.444 Y21.654 Z-0.49
X12.463 Y21.66
X12.43 Y21.858
X12.422 Y21.895
X12.338 Y22.02
X12.205 Y22.089
X12.061 Y22.128
X11.898 Y22.151
X11.713 Y22.163
X11.5 Y22.16
X11.254 Y22.136
X10.85 Y22.063
X10.427 Y21.952
X10.013 Y21.811
X9.608 Y21.645
X9.212 Y21.458
X8.829 Y21.247
X8.541 Y21.071
X8.479 Y21.025
X8.454 Y20.998
X8.44 Y20.964
X8.439 Y20.928
X8.474 Y20.717
X8.482 Y20.699
X8.491 Y20.675 Z-0.483
X8.499 Y20.659 Z-0.465
X8.501 Y20.652 Z-0.44
G0 Z5
X12.364 Y21.837
Z-0.39
G1 Z-0.44 F1000
X12.37 Y21.839 Z-0.465
X12.387 Y21.845 Z-0.483
X12.411 Y21.852 Z-0.49
X12.43 Y21.858
X12.397 Y22.057
X12.389 Y22.094
X12.304 Y22.217
X12.17 Y22.285
X12.025 Y22.324
X11.872 Y22.346
X11.681 Y22.359
X11.453 Y22.355
X11.211 Y22.331
X10.996 Y22.293
X10.693 Y22.233
X10.273 Y22.113
X9.86 Y21.968
X9.458 Y21.795
X9.26 Y21.702
X8.887 Y21.516
X8.519 Y21.293
X8.444 Y21.239
X8.418 Y21.212
X8.404 Y21.178
X8.403 Y21.141
X8.439 Y20.928
X8.447 Y20.91
X8.456 Y20.887 Z-0.483
X8.463 Y20.87 Z-0.465
X8.466 Y20.864 Z-0.44
G0 Z5
X12.33 Y22.036
Z-0.39
G1 Z-0.44 F1000
X12.337 Y22.038 Z-0.465
X12.354 Y22.043 Z-0.483
X12.378 Y22.051 Z-0.49
X12.397 Y22.057
X12.371 Y22.211
X12.355 Y22.284
X12.274 Y22.41
X12.141 Y22.48
X11.996 Y22.519
X11.842 Y22.542
X11.643 Y22.554
X11.414 Y22.551
X11.179 Y22.528
X10.749 Y22.451
X10.325 Y22.34
X9.911 Y22.2
X9.504 Y22.039
X9.11 Y21.85
X8.928 Y21.76
X8.604 Y21.585
X8.514 Y21.527
X8.41 Y21.456
X8.383 Y21.43
X8.368 Y21.395
X8.367 Y21.357
X8.403 Y21.141
X8.411 Y21.123
X8.421 Y21.1 Z-0.483
X8.428 Y21.083 Z-0.465
X8.43 Y21.077 Z-0.44
G0 Z5
X12.305 Y22.19
Z-0.39
G1 Z-0.44 F1000
X12.311 Y22.192 Z-0.465
X12.329 Y22.197 Z-0.483
X12.352 Y22.205 Z-0.49
X12.371 Y22.211
X12.338 Y22.409
X12.322 Y22.483
X12.239 Y22.607
X12.106 Y22.676
X11.961 Y22.715
X11.802 Y22.738
X11.6 Y22.751
X11.372 Y22.746
X11.122 Y22.722
X10.692 Y22.643
X10.269 Y22.532
X9.854 Y22.393
X9.447 Y22.232
X9.051 Y22.045
X8.661 Y21.849
X8.456 Y21.728
X8.373 Y21.669
X8.347 Y21.642
X8.333 Y21.608
X8.332 Y21.571
X8.367 Y21.357
X8.375 Y21.339
X8.385 Y21.316 Z-0.483
X8.392 Y21.299 Z-0.465
X8.394 Y21.293 Z-0.44
G0 Z5
X12.272 Y22.388
Z-0.39
G1 Z-0.44 F1000
X12.278 Y22.39 Z-0.465
X12.296 Y22.396 Z-0.483
X12.319 Y22.404 Z-0.49
X12.338 Y22.409
X12.305 Y22.608
X12.289 Y22.681
X12.204 Y22.805
X12.07 Y22.873
X11.925 Y22.912
X11.764 Y22.935
X11.561 Y22.947
X11.325 Y22.942
X11.082 Y22.918
X10.651 Y22.839
X10.228 Y22.728
X9.813 Y22.59
X9.406 Y22.431
X9.008 Y22.248
X8.618 Y22.051
X8.427 Y21.942
X8.339 Y21.882
X8.312 Y21.856
X8.297 Y21.821
X8.296 Y21.783
X8.332 Y21.571
X8.339 Y21.553
X8.349 Y21.53 Z-0.483
X8.356 Y21.513 Z-0.465
X8.359 Y21.507 Z-0.44
G0 Z5
X12.239 Y22.587
Z-0.39
G1 Z-0.44 F1000
X12.245 Y22.589 Z-0.465
X12.262 Y22.595 Z-0.483
X12.286 Y22.602 Z-0.49
X12.305 Y22.608
X12.272 Y22.807
X12.256 Y22.88
X12.169 Y23.002
X12.035 Y23.07
X11.89 Y23.108
X11.727 Y23.131
X11.52 Y23.143
X11.285 Y23.139
X11.042 Y23.114
X10.612 Y23.035
X10.188 Y22.925
X9.773 Y22.788
X9.365 Y22.631
X8.966 Y22.45
X8.575 Y22.254
X8.393 Y22.153
X8.305 Y22.094
X8.277 Y22.067
X8.262 Y22.032
X8.261 Y21.994
X8.296 Y21.783
X8.304 Y21.765
X8.314 Y21.742 Z-0.483
X8.321 Y21.725 Z-0.465
X8.323 Y21.719 Z-0.44
G0 Z5
X12.206 Y22.786
Z-0.39
G1 Z-0.44 F1000
X12.212 Y22.788 Z-0.465
X12.229 Y22.793 Z-0.483
X12.253 Y22.801 Z-0.49
X12.272 Y22.807
X12.237 Y23.019
X12.221 Y23.092
X12.123 Y23.206
X11.988 Y23.27
X11.842 Y23.307
X11.675 Y23.329
X11.464 Y23.34
X11.226 Y23.333
X10.958 Y23.304
X10.529 Y23.221
X10.106 Y23.109
X9.691 Y22.971
X9.282 Y22.813
X8.884 Y22.632
X8.493 Y22.437
X8.351 Y22.358
X8.269 Y22.303
X8.242 Y22.276
X8.227 Y22.241
X8.226 Y22.203
X8.261 Y21.994
X8.269 Y21.976
X8.279 Y21.953 Z-0.483
X8.286 Y21.936 Z-0.465
X8.288 Y21.93 Z-0.44
G0 Z5
X12.17 Y22.998
Z-0.39
G1 Z-0.44 F1000
X12.177 Y23 Z-0.465
X12.194 Y23.005 Z-0.483
X12.218 Y23.013 Z-0.49
X12.237 Y23.019
X12.203 Y23.217
X12.187 Y23.291
X12.089 Y23.404
X11.953 Y23.467
X11.807 Y23.503
X11.637 Y23.526
X11.424 Y23.536
X11.18 Y23.529
X11.032 Y23.513
X10.639 Y23.451
X10.214 Y23.349
X9.795 Y23.222
X9.385 Y23.07
X8.981 Y22.903
X8.589 Y22.708
X8.363 Y22.594
X8.235 Y22.516
X8.223 Y22.505
X8.202 Y22.479
X8.191 Y22.447
Y22.414
X8.226 Y22.203
X8.234 Y22.185
X8.244 Y22.162 Z-0.483
X8.251 Y22.145 Z-0.465
X8.253 Y22.139 Z-0.44
G0 Z5
X12.137 Y23.196
Z-0.39
G1 Z-0.44 F1000
X12.143 Y23.198 Z-0.465
X12.161 Y23.204 Z-0.483
X12.185 Y23.211 Z-0.49
X12.203 Y23.217
X12.17 Y23.416
X12.154 Y23.489
X12.054 Y23.601
X11.918 Y23.664
X11.772 Y23.699
X11.6 Y23.722
X11.383 Y23.733
X11.18 Y23.727
X10.812 Y23.687
X10.4 Y23.608
X9.979 Y23.488
X9.77 Y23.423
X9.358 Y23.276
X8.954 Y23.108
X8.559 Y22.921
X8.405 Y22.84
X8.273 Y22.768
X8.201 Y22.721
X8.173 Y22.694
X8.158 Y22.659
X8.157 Y22.621
X8.191 Y22.414
X8.199 Y22.396
X8.209 Y22.373 Z-0.483
X8.216 Y22.356 Z-0.465
X8.218 Y22.35 Z-0.44
G0 Z5
X12.104 Y23.395
Z-0.39
G1 Z-0.44 F1000
X12.11 Y23.397 Z-0.465
X12.128 Y23.402 Z-0.483
X12.152 Y23.41 Z-0.49
X12.17 Y23.416
X12.137 Y23.615
X12.129 Y23.651
X12.048 Y23.777
X11.915 Y23.848
X11.771 Y23.888
X11.605 Y23.914
X11.42 Y23.928
X11.226
X10.886 Y23.899
X10.485 Y23.832
X10.06 Y23.726
X9.644 Y23.59
X9.232 Y23.443
X8.831 Y23.27
X8.435 Y23.084
X8.323 Y23.023
X8.193 Y22.948
X8.16 Y22.922
X8.136 Y22.896
X8.123 Y22.863
Y22.827
X8.157 Y22.621
X8.164 Y22.603
X8.174 Y22.579 Z-0.483
X8.181 Y22.563 Z-0.465
X8.184 Y22.556 Z-0.44
G0 Z5
X12.071 Y23.593
Z-0.39
G1 Z-0.44 F1000
X12.077 Y23.595 Z-0.465
X12.095 Y23.601 Z-0.483
X12.119 Y23.609 Z-0.49
X12.137 Y23.615
X12.118 Y23.727
X12.114 Y23.745
X12.077 Y23.844
X12.047 Y23.913
X11.934 Y24.012
X11.795 Y24.067
X11.648 Y24.099
X11.496 Y24.118
X11.318 Y24.125
X11.026 Y24.114
X10.653 Y24.069
X10.237 Y23.984
X9.817 Y23.861
X9.404 Y23.718
X9.198 Y23.643
X8.794 Y23.474
X8.399 Y23.287
X8.222 Y23.194
X8.133 Y23.137
X8.105 Y23.11
X8.089 Y23.075
X8.088 Y23.036
X8.095 Y23.018
X8.105 Y22.995 Z-0.483
X8.112 Y22.978 Z-0.465
X8.115 Y22.972 Z-0.44
G0 Z5
X12.016 Y23.811
Z-0.39
G1 Z-0.44 F1000
X12.022 Y23.814 Z-0.465
X12.038 Y23.823 Z-0.483
X12.06 Y23.835 Z-0.49
X12.077 Y23.844
X12.002 Y24.043
X11.972 Y24.112
X11.862 Y24.214
X11.723 Y24.269
X11.576 Y24.3
X11.427 Y24.315
X11.187 Y24.32
X10.861 Y24.3
X10.655 Y24.27
X10.26 Y24.195
X9.838 Y24.079
X9.424 Y23.937
X9.012 Y23.79
X8.416 Y23.516
X8.206 Y23.411
X8.137 Y23.369
X8.112 Y23.348
X8.095 Y23.319
X8.089 Y23.287
X8.093 Y23.268
X8.097 Y23.243 Z-0.483
X8.101 Y23.225 Z-0.465
X8.102 Y23.219 Z-0.44
G0 Z5
X11.941 Y24.009
Z-0.39
G1 Z-0.44 F1000
X11.947 Y24.012 Z-0.465
X11.963 Y24.021 Z-0.483
X11.984 Y24.033 Z-0.49
X12.002 Y24.043
X11.929 Y24.235
X11.921 Y24.254
X11.913 Y24.266
X11.864 Y24.318
X11.757 Y24.423
X11.616 Y24.475
X11.468 Y24.5
X11.301 Y24.513
X11.033 Y24.512
X10.775 Y24.491
X10.343 Y24.419
X9.918 Y24.314
X9.502 Y24.179
X9.092 Y24.028
X8.815 Y23.923
X8.421 Y23.734
X8.215 Y23.639
X8.147 Y23.6
X8.12 Y23.579
X8.103 Y23.55
X8.096 Y23.516
X8.1 Y23.497
X8.105 Y23.473 Z-0.483
X8.108 Y23.455 Z-0.465
X8.11 Y23.448 Z-0.44
G0 Z5
X11.821 Y24.264
Z-0.39
G1 Z-0.44 F1000
X11.825 Y24.269 Z-0.465
X11.837 Y24.284 Z-0.483
X11.852 Y24.303 Z-0.49
X11.864 Y24.318
X11.657 Y24.539
X11.631 Y24.568
X11.606 Y24.594
X11.587 Y24.611
X11.582 Y24.614
G3 X11.524 Y24.533 I-0.025 J-0.043
G1 X11.536 Y24.523
G3 X11.606 Y24.594 I0.032 J0.038
G1 X11.594 Y24.607
X11.581 Y24.615
X11.442 Y24.67
X11.294 Y24.697
X11.145 Y24.706
X10.927 Y24.702
X10.631 Y24.673
X10.201 Y24.594
X9.779 Y24.48
X9.364 Y24.343
X8.954 Y24.189
X8.736 Y24.106
X8.234 Y23.868
X8.214 Y23.856
X8.197 Y23.839
X8.185 Y23.819
X8.182 Y23.8
X8.177 Y23.775 Z-0.483
X8.173 Y23.757 Z-0.465
X8.172 Y23.751 Z-0.44
G0 Z5
X11.553 Y24.551
Z-0.39
G1 Z-0.44 F1000
X11.556 Y24.557 Z-0.465
X11.563 Y24.574 Z-0.483
X11.573 Y24.597 Z-0.49
X11.581 Y24.615
X11.184 Y24.795
X11.159 Y24.805
X11.147 Y24.808
X11.135 Y24.81
X10.601 Y24.828
X10.588 Y24.826
X10.047 Y24.738
X9.876 Y24.701
X9.651 Y24.647
X9.235 Y24.512
X8.828 Y24.351
X8.587 Y24.258
X8.413 Y24.174
X8.405 Y24.168
X8.397 Y24.161
X8.386 Y24.145
G3 X8.445 Y24.07 I0.042 J-0.028
G1 X10.022 Y24.657
G3 X10.053 Y24.719 I-0.017 J0.047
G1 X10.047 Y24.738
X9.198 Y24.599
X9.173 Y24.594
X9.149 Y24.586
X8.751 Y24.437
X8.652 Y24.398
X8.636 Y24.385
X8.313 Y24.082
X8.296 Y24.063
X8.107 Y23.646
X8.102 Y23.633
X8.099 Y23.621
X8.082 Y23.075
X8.085 Y23.05
X8.123 Y22.827
X8.13 Y22.809
X8.14 Y22.786 Z-0.483
X8.147 Y22.769 Z-0.465
X8.149 Y22.763 Z-0.44
G0 Z5
X12.012 Y11.049
Z-0.44
G1 Z-0.49 F1000
X12.025 Y11.035
X12.478 Y10.582
X12.59 Y10.482
X12.72 Y10.408
X12.861 Y10.355
X13.031 Y10.306
X13.224 Y10.268
X13.429 Y10.245
X13.64 Y10.238
X13.853 Y10.247
X14.063 Y10.274
X14.27 Y10.318
X14.471 Y10.377
X14.668 Y10.453
X14.859 Y10.545
X15.045 Y10.653
X15.223 Y10.777
X15.393 Y10.917
X15.551 Y11.071
X15.698 Y11.237
X15.83 Y11.414
X15.947 Y11.601
X16.049 Y11.796
X16.135 Y12
X16.204 Y12.21
X16.257 Y12.425
X16.292 Y12.645
X16.309 Y12.865
Y13.086
X16.291 Y13.305
X16.255 Y13.52
X16.208 Y13.711
X16.202 Y13.728
X16.193 Y13.744
X16.182 Y13.758
X15.839 Y14.1
X15.823 Y14.11
X15.802 Y14.123 Z-0.483
X15.786 Y14.133 Z-0.465
X15.78 Y14.136 Z-0.44
G0 Z5
X12.52 Y10.638
Z-0.39
G1 Z-0.44 F1000
X12.516 Y10.633 Z-0.465
X12.505 Y10.618 Z-0.483
X12.49 Y10.598 Z-0.49
X12.478 Y10.582
X12.776 Y10.284
X12.888 Y10.184
X13.025 Y10.123
X13.17 Y10.086
X13.318 Y10.061
X13.514 Y10.044
X13.73 Y10.043
X13.953 Y10.06
X14.176 Y10.094
X14.395 Y10.147
X14.61 Y10.217
X14.82 Y10.305
X15.024 Y10.41
X15.221 Y10.533
X15.409 Y10.672
X15.587 Y10.827
X15.752 Y10.997
X15.903 Y11.179
X16.039 Y11.372
X16.159 Y11.576
X16.262 Y11.789
X16.348 Y12.009
X16.416 Y12.237
X16.466 Y12.47
X16.497 Y12.705
X16.509 Y12.942
X16.502 Y13.177
X16.476 Y13.411
X16.469 Y13.446
X16.463 Y13.465
X16.454 Y13.483
X16.441 Y13.498
X16.182 Y13.758
X16.165 Y13.768
X16.144 Y13.781 Z-0.483
X16.128 Y13.791 Z-0.465
X16.123 Y13.794 Z-0.44
G0 Z5
X12.818 Y10.34
Z-0.39
G1 Z-0.44 F1000
X12.814 Y10.335 Z-0.465
X12.803 Y10.32 Z-0.483
X12.788 Y10.3 Z-0.49
X12.776 Y10.284
X13.018 Y10.042
X13.13 Y9.942
X13.27 Y9.889
X13.417 Y9.861
X13.591 Y9.848
X13.801 Y9.85
X14.027 Y9.87
X14.259 Y9.909
X14.49 Y9.968
X14.718 Y10.046
X14.942 Y10.143
X15.159 Y10.258
X15.368 Y10.392
X15.567 Y10.544
X15.754 Y10.712
X15.928 Y10.894
X16.087 Y11.091
X16.229 Y11.299
X16.354 Y11.518
X16.461 Y11.747
X16.55 Y11.984
X16.62 Y12.228
X16.669 Y12.477
X16.699 Y12.728
X16.708 Y12.98
X16.698 Y13.204
X16.694 Y13.228
X16.684 Y13.251
X16.669 Y13.27
X16.441 Y13.498
X16.425 Y13.508
X16.403 Y13.522 Z-0.483
X16.388 Y13.531 Z-0.465
X16.382 Y13.535 Z-0.44
G0 Z5
X13.06 Y10.098
Z-0.39
G1 Z-0.44 F1000
X13.056 Y10.093 Z-0.465
X13.045 Y10.078 Z-0.483
X13.03 Y10.058 Z-0.49
X13.018 Y10.042
X13.249 Y9.812
X13.36 Y9.711
X13.505 Y9.672
X13.654 Y9.658
X13.843
X14.059 Y9.675
X14.277 Y9.71
X14.52 Y9.769
X14.764 Y9.85
X15.002 Y9.951
X15.234 Y10.072
X15.458 Y10.212
X15.671 Y10.371
X15.872 Y10.548
X16.058 Y10.741
X16.229 Y10.948
X16.382 Y11.168
X16.517 Y11.4
X16.633 Y11.642
X16.73 Y11.894
X16.806 Y12.152
X16.861 Y12.416
X16.895 Y12.683
X16.907 Y12.951
X16.906 Y12.995
X16.902 Y13.02
X16.892 Y13.043
X16.877 Y13.063
X16.669 Y13.27
X16.653 Y13.28
X16.631 Y13.293 Z-0.483
X16.616 Y13.303 Z-0.465
X16.61 Y13.307 Z-0.44
G0 Z5
X13.291 Y9.867
Z-0.39
G1 Z-0.44 F1000
X13.287 Y9.862 Z-0.465
X13.276 Y9.847 Z-0.483
X13.261 Y9.827 Z-0.49
X13.249 Y9.812
X13.448 Y9.613
X13.559 Y9.513
X13.705 Y9.478
X13.855 Y9.47
X14.008 Y9.475
X14.205 Y9.498
X14.442 Y9.544
X14.694 Y9.615
X14.947 Y9.709
X15.196 Y9.825
X15.438 Y9.962
X15.67 Y10.119
X15.891 Y10.296
X16.097 Y10.491
X16.287 Y10.702
X16.46 Y10.927
X16.614 Y11.166
X16.749 Y11.417
X16.863 Y11.678
X16.956 Y11.947
X17.027 Y12.224
X17.076 Y12.505
X17.101 Y12.781
X17.102 Y12.795
X17.098 Y12.821
X17.088 Y12.846
X17.072 Y12.867
X16.877 Y13.063
X16.86 Y13.073
X16.839 Y13.086 Z-0.483
X16.823 Y13.096 Z-0.465
X16.818 Y13.099 Z-0.44
G0 Z5
X13.489 Y9.669
Z-0.39
G1 Z-0.44 F1000
X13.485 Y9.664 Z-0.465
X13.474 Y9.649 Z-0.483
X13.459 Y9.629 Z-0.49
X13.448 Y9.613
X13.646 Y9.415
X13.702 Y9.364
X13.84 Y9.305
X13.989 Y9.291
X14.139 Y9.296
X14.338 Y9.323
X14.576 Y9.374
X14.833 Y9.452
X15.094 Y9.554
X15.353 Y9.681
X15.606 Y9.83
X15.848 Y10.001
X16.077 Y10.192
X16.29 Y10.401
X16.487 Y10.628
X16.665 Y10.87
X16.823 Y11.125
X16.961 Y11.393
X17.076 Y11.671
X17.169 Y11.958
X17.239 Y12.251
X17.284 Y12.545
X17.288 Y12.602
X17.286 Y12.631
X17.276 Y12.657
X17.259 Y12.68
X17.072 Y12.867
X17.056 Y12.877
X17.034 Y12.89 Z-0.483
X17.019 Y12.9 Z-0.465
X17.013 Y12.904 Z-0.44
G0 Z5
X13.688 Y9.47
Z-0.39
G1 Z-0.44 F1000
X13.684 Y9.465 Z-0.465
X13.673 Y9.45 Z-0.483
X13.658 Y9.43 Z-0.49
X13.646 Y9.415
X13.813 Y9.248
X13.924 Y9.147
X14.071 Y9.116
X14.221 Y9.117
X14.405 Y9.138
X14.602 Y9.177
X14.847 Y9.247
X15.119 Y9.348
X15.392 Y9.476
X15.66 Y9.628
X15.917 Y9.804
X16.161 Y10.001
X16.39 Y10.217
X16.601 Y10.452
X16.793 Y10.704
X16.964 Y10.97
X17.113 Y11.25
X17.24 Y11.54
X17.343 Y11.841
X17.421 Y12.148
X17.464 Y12.401
X17.467 Y12.424
X17.465 Y12.454
X17.454 Y12.482
X17.437 Y12.505
X17.291 Y12.649
X17.259 Y12.68
X17.243 Y12.691
X17.221 Y12.704 Z-0.483
X17.206 Y12.713 Z-0.465
X17.2 Y12.717 Z-0.44
G0 Z5
X13.854 Y9.304
Z-0.39
G1 Z-0.44 F1000
X13.85 Y9.298 Z-0.465
X13.839 Y9.284 Z-0.483
X13.824 Y9.264 Z-0.49
X13.813 Y9.248
X13.992 Y9.069
X14.047 Y9.019
X14.183 Y8.954
X14.333 Y8.945
X14.482 Y8.959
X14.681 Y8.996
X14.881 Y9.05
X15.151 Y9.146
X15.437 Y9.275
X15.719 Y9.431
X15.992 Y9.611
X16.251 Y9.814
X16.494 Y10.039
X16.719 Y10.282
X16.924 Y10.544
X17.107 Y10.821
X17.268 Y11.112
X17.405 Y11.416
X17.517 Y11.73
X17.604 Y12.052
X17.639 Y12.239
X17.641 Y12.259
X17.639 Y12.29
X17.628 Y12.319
X17.608 Y12.344
X17.519 Y12.425
X17.437 Y12.505
X17.42 Y12.515
X17.398 Y12.528 Z-0.483
X17.383 Y12.537 Z-0.465
X17.377 Y12.541 Z-0.44
G0 Z5
X14.034 Y9.125
Z-0.39
G1 Z-0.44 F1000
X14.029 Y9.119 Z-0.465
X14.019 Y9.105 Z-0.483
X14.004 Y9.085 Z-0.49
X13.992 Y9.069
X14.166 Y8.894
X14.222 Y8.844
X14.36 Y8.786
X14.51 Y8.78
X14.659 Y8.797
X14.825 Y8.832
X15.062 Y8.902
X15.338 Y9.008
X15.627 Y9.147
X15.915 Y9.315
X16.077 Y9.428
X16.341 Y9.63
X16.598 Y9.861
X16.836 Y10.113
X17.055 Y10.384
X17.25 Y10.673
X17.423 Y10.976
X17.57 Y11.292
X17.692 Y11.62
X17.787 Y11.956
X17.816 Y12.105
X17.814 Y12.135
X17.802 Y12.163
X17.783 Y12.186
X17.608 Y12.344
X17.591 Y12.353
X17.569 Y12.365 Z-0.483
X17.553 Y12.374 Z-0.465
X17.547 Y12.377 Z-0.44
G0 Z5
X14.208 Y8.95
Z-0.39
G1 Z-0.44 F1000
X14.204 Y8.945 Z-0.465
X14.193 Y8.93 Z-0.483
X14.178 Y8.91 Z-0.49
X14.166 Y8.894
X14.312 Y8.749
X14.342 Y8.722
X14.4 Y8.674
X14.54 Y8.621
X14.69 Y8.619
X14.839 Y8.641
X15.012 Y8.682
X15.258 Y8.762
X15.541 Y8.88
X15.836 Y9.032
X16.076 Y9.181
X16.403 Y9.422
X16.681 Y9.664
X16.936 Y9.924
X17.169 Y10.204
X17.379 Y10.502
X17.564 Y10.816
X17.724 Y11.145
X17.857 Y11.485
X17.962 Y11.834
X17.985 Y11.938
X17.986 Y11.973
X17.975 Y12.006
X17.954 Y12.033
X17.783 Y12.186
X17.766 Y12.196
X17.744 Y12.208 Z-0.483
X17.728 Y12.217 Z-0.465
X17.722 Y12.22 Z-0.44
G0 Z5
X14.381 Y8.779
Z-0.39
G1 Z-0.44 F1000
X14.377 Y8.774 Z-0.465
X14.367 Y8.759 Z-0.483
X14.353 Y8.738 Z-0.49
X14.342 Y8.722
X14.419 Y8.652
X14.537 Y8.553
X14.597 Y8.508
X14.74 Y8.461
X14.89 Y8.466
X15.037 Y8.493
X15.216 Y8.541
X15.47 Y8.632
X15.76 Y8.763
X16.027 Y8.911
X16.342 Y9.12
X16.514 Y9.256
X16.791 Y9.493
X17.058 Y9.761
X17.304 Y10.051
X17.525 Y10.361
X17.722 Y10.687
X17.891 Y11.028
X18.033 Y11.382
X18.132 Y11.702
X18.151 Y11.787
X18.153 Y11.822
X18.142 Y11.855
X18.121 Y11.883
X17.954 Y12.033
X17.937 Y12.042
X17.915 Y12.054 Z-0.483
X17.899 Y12.063 Z-0.465
X17.893 Y12.066 Z-0.44
G0 Z5
X14.574 Y8.612
Z-0.39
G1 Z-0.44 F1000
X14.571 Y8.606 Z-0.465
X14.561 Y8.591 Z-0.483
X14.548 Y8.57 Z-0.49
X14.537 Y8.553
X14.657 Y8.454
X14.736 Y8.398
X14.862 Y8.317
X15.012 Y8.308
X15.16 Y8.33
X15.352 Y8.381
X15.575 Y8.461
X15.843 Y8.581
X16.124 Y8.736
X16.443 Y8.947
X16.764 Y9.198
X17.057 Y9.467
X17.326 Y9.758
X17.572 Y10.07
X17.791 Y10.401
X17.983 Y10.749
X18.147 Y11.111
X18.271 Y11.457
X18.303 Y11.572
X18.306 Y11.597
X18.303 Y11.623
X18.294 Y11.647
X18.281 Y11.661
X18.264 Y11.68 Z-0.483
X18.252 Y11.693 Z-0.465
X18.247 Y11.698 Z-0.44
G0 Z5
X14.767 Y8.46
Z-0.39
G1 Z-0.44 F1000
X14.764 Y8.454 Z-0.465
X14.756 Y8.437 Z-0.483
X14.745 Y8.415 Z-0.49
X14.736 Y8.398
X14.975 Y8.227
X15.039 Y8.187
X15.187 Y8.165
X15.336 Y8.184
X15.494 Y8.226
X15.718 Y8.306
X15.942 Y8.407
X16.108 Y8.499
X16.402 Y8.675
X16.724 Y8.904
X17.036 Y9.166
X17.191 Y9.32
X17.46 Y9.607
X17.716 Y9.929
X17.946 Y10.272
X18.148 Y10.632
X18.321 Y11.008
X18.435 Y11.319
X18.441 Y11.346
X18.438 Y11.375
X18.428 Y11.401
X18.415 Y11.416
X18.399 Y11.434 Z-0.483
X18.386 Y11.448 Z-0.465
X18.382 Y11.453 Z-0.44
G0 Z5
X15.007 Y8.289
Z-0.39
G1 Z-0.44 F1000
X15.004 Y8.283 Z-0.465
X14.996 Y8.267 Z-0.483
X14.984 Y8.245 Z-0.49
X14.975 Y8.227
X15.174 Y8.086
X15.206 Y8.064
X15.216 Y8.06
X15.362 Y8.024
X15.511 Y8.041
X15.656 Y8.08
X15.848 Y8.149
X16.048 Y8.239
X16.38 Y8.423
X16.715 Y8.646
X17.043 Y8.903
X17.304 Y9.144
X17.599 Y9.467
X17.836 Y9.756
X18.076 Y10.101
X18.291 Y10.471
X18.476 Y10.859
X18.562 Y11.085
X18.568 Y11.113
X18.566 Y11.141
X18.556 Y11.168
X18.543 Y11.183
X18.526 Y11.201 Z-0.483
X18.514 Y11.215 Z-0.465
X18.51 Y11.22 Z-0.44
G0 Z5
X15.235 Y8.126
Z-0.39
G1 Z-0.44 F1000
X15.233 Y8.12 Z-0.465
X15.228 Y8.102 Z-0.483
X15.221 Y8.078 Z-0.49
X15.216 Y8.06
X15.54 Y7.966
X15.686 Y7.931
X15.835 Y7.952
X15.977 Y7.999
X16.161 Y8.078
X16.429 Y8.221
X16.765 Y8.436
X17.105 Y8.693
X17.386 Y8.945
X17.688 Y9.262
X17.968 Y9.599
X18.217 Y9.951
X18.44 Y10.327
X18.633 Y10.719
X18.644 Y10.747
X18.649 Y10.764
X18.651 Y10.782
X18.65 Y10.8
X18.642 Y10.818
X18.633 Y10.841 Z-0.483
X18.626 Y10.858 Z-0.465
X18.623 Y10.865 Z-0.44
G0 Z5
X15.55 Y8.035
Z-0.39
G1 Z-0.44 F1000
X15.549 Y8.028 Z-0.465
X15.546 Y8.01 Z-0.483
X15.543 Y7.985 Z-0.49
X15.54 Y7.966
X15.856 Y7.875
X16.002 Y7.84
X16.148 Y7.873
X16.319 Y7.942
X16.488 Y8.027
X16.795 Y8.214
X17.139 Y8.463
X17.444 Y8.724
X17.752 Y9.034
X18.038 Y9.365
X18.293 Y9.701
X18.528 Y10.07
X18.698 Y10.389
X18.706 Y10.409
X18.709 Y10.43
X18.708 Y10.452
X18.701 Y10.47
X18.691 Y10.493 Z-0.483
X18.684 Y10.51 Z-0.465
X18.681 Y10.516 Z-0.44
G0 Z5
X15.866 Y7.944
Z-0.39
G1 Z-0.44 F1000
X15.865 Y7.937 Z-0.465
X15.862 Y7.919 Z-0.483
X15.859 Y7.894 Z-0.49
X15.856 Y7.875
X15.914 Y7.858
X16 Y7.835
X16.012 Y7.834
X16.397 Y7.855
X16.546 Y7.871
X16.685 Y7.929
X16.817 Y7.999
X17.088 Y8.174
X17.374 Y8.392
X17.697 Y8.687
X17.997 Y9.005
X18.276 Y9.342
X18.405 Y9.519
X18.628 Y9.848
X18.673 Y9.926
X18.678 Y9.936
X18.682 Y9.947
X18.684 Y9.958
X18.683 Y9.978
X18.682 Y10.003 Z-0.483
X18.68 Y10.021 Z-0.465
Y10.028 Z-0.44
G0 Z5
X16.383 Y7.923
Z-0.39
G1 Z-0.44 F1000
X16.385 Y7.917 Z-0.465
X16.388 Y7.899 Z-0.483
X16.393 Y7.874 Z-0.49
X16.397 Y7.855
X16.794 Y7.877
X16.819 Y7.879
X16.832 Y7.882
X17.092 Y7.99
X17.228 Y8.054
X17.365 Y8.142
X17.545 Y8.279
X17.828 Y8.534
X18.128 Y8.852
X18.409 Y9.188
X18.564 Y9.398
X18.566 Y9.402
G3 X18.487 Y9.461 I-0.045 J0.023
G1 X17.04 Y8.073
G3 X17.092 Y7.99 I0.035 J-0.036
G1 X17.577 Y8.19
X17.589 Y8.197
X18.184 Y8.728
X18.204 Y8.751
X18.482 Y9.251
X18.597 Y9.459
X18.6 Y9.471
X18.737 Y10.266
Y10.278
X18.735 Y10.291
X18.603 Y11.079
X18.594 Y11.1
X18.221 Y11.778
X18.208 Y11.802
X18.18 Y11.83
X18.121 Y11.883
X18.103 Y11.893
X18.081 Y11.905 Z-0.483
X18.065 Y11.913 Z-0.465
X18.06 Y11.917 Z-0.44
G0 Z5
X13.577 Y13.069
Z2.06
G1 Z2.01 F1000
G3 X13.657 Y12.697 Z1.989 I0.04 J-0.186 F333.3
X13.577 Y13.069 Z1.968 I-0.04 J0.186
X13.657 Y12.697 Z1.947 I0.04 J-0.186
X13.577 Y13.069 Z1.927 I-0.04 J0.186
X13.657 Y12.697 Z1.906 I0.04 J-0.186
X13.577 Y13.069 Z1.885 I-0.04 J0.186
X13.657 Y12.697 Z1.864 I0.04 J-0.186
X13.577 Y13.069 Z1.843 I-0.04 J0.186
X13.657 Y12.697 Z1.822 I0.04 J-0.186
X13.577 Y13.069 Z1.802 I-0.04 J0.186
X13.657 Y12.697 Z1.781 I0.04 J-0.186
X13.577 Y13.069 Z1.76 I-0.04 J0.186
X13.657 Y12.697 Z1.739 I0.04 J-0.186
X13.577 Y13.069 Z1.718 I-0.04 J0.186
X13.657 Y12.697 Z1.697 I0.04 J-0.186
X13.577 Y13.069 Z1.676 I-0.04 J0.186
X13.657 Y12.697 Z1.656 I0.04 J-0.186
X13.577 Y13.069 Z1.635 I-0.04 J0.186
X13.657 Y12.697 Z1.614 I0.04 J-0.186
X13.577 Y13.069 Z1.593 I-0.04 J0.186
X13.657 Y12.697 Z1.572 I0.04 J-0.186
X13.577 Y13.069 Z1.551 I-0.04 J0.186
X13.657 Y12.697 Z1.531 I0.04 J-0.186
X13.577 Y13.069 Z1.51 I-0.04 J0.186
X13.657 Y12.697 Z1.489 I0.04 J-0.186
X13.577 Y13.069 Z1.468 I-0.04 J0.186
X13.657 Y12.697 Z1.447 I0.04 J-0.186
X13.577 Y13.069 Z1.426 I-0.04 J0.186
X13.657 Y12.697 Z1.406 I0.04 J-0.186
X13.577 Y13.069 Z1.385 I-0.04 J0.186
X13.657 Y12.697 Z1.364 I0.04 J-0.186
X13.577 Y13.069 Z1.343 I-0.04 J0.186
X13.657 Y12.697 Z1.322 I0.04 J-0.186
X13.577 Y13.069 Z1.301 I-0.04 J0.186
X13.657 Y12.697 Z1.28 I0.04 J-0.186
X13.577 Y13.069 Z1.26 I-0.04 J0.186
X13.657 Y12.697 Z1.239 I0.04 J-0.186
X13.577 Y13.069 Z1.218 I-0.04 J0.186
X13.657 Y12.697 Z1.197 I0.04 J-0.186
X13.577 Y13.069 Z1.176 I-0.04 J0.186
X13.657 Y12.697 Z1.155 I0.04 J-0.186
X13.577 Y13.069 Z1.135 I-0.04 J0.186
X13.657 Y12.697 Z1.114 I0.04 J-0.186
X13.577 Y13.069 Z1.093 I-0.04 J0.186
X13.657 Y12.697 Z1.072 I0.04 J-0.186
X13.577 Y13.069 Z1.051 I-0.04 J0.186
X13.657 Y12.697 Z1.03 I0.04 J-0.186
X13.577 Y13.069 Z1.009 I-0.04 J0.186
X13.657 Y12.697 Z0.989 I0.04 J-0.186
X13.577 Y13.069 Z0.968 I-0.04 J0.186
X13.657 Y12.697 Z0.947 I0.04 J-0.186
X13.577 Y13.069 Z0.926 I-0.04 J0.186
X13.657 Y12.697 Z0.905 I0.04 J-0.186
X13.577 Y13.069 Z0.884 I-0.04 J0.186
X13.657 Y12.697 Z0.864 I0.04 J-0.186
X13.577 Y13.069 Z0.843 I-0.04 J0.186
X13.657 Y12.697 Z0.822 I0.04 J-0.186
X13.577 Y13.069 Z0.801 I-0.04 J0.186
X13.657 Y12.697 Z0.78 I0.04 J-0.186
X13.577 Y13.069 Z0.759 I-0.04 J0.186
X13.657 Y12.697 Z0.738 I0.04 J-0.186
X13.577 Y13.069 Z0.718 I-0.04 J0.186
X13.657 Y12.697 Z0.697 I0.04 J-0.186
X13.577 Y13.069 Z0.676 I-0.04 J0.186
X13.657 Y12.697 Z0.655 I0.04 J-0.186
X13.577 Y13.069 Z0.634 I-0.04 J0.186
X13.657 Y12.697 Z0.613 I0.04 J-0.186
X13.577 Y13.069 Z0.593 I-0.04 J0.186
X13.657 Y12.697 Z0.572 I0.04 J-0.186
X13.577 Y13.069 Z0.551 I-0.04 J0.186
X13.657 Y12.697 Z0.53 I0.04 J-0.186
X13.577 Y13.069 Z0.509 I-0.04 J0.186
X13.657 Y12.697 Z0.488 I0.04 J-0.186
X13.577 Y13.069 Z0.468 I-0.04 J0.186
X13.657 Y12.697 Z0.447 I0.04 J-0.186
X13.577 Y13.069 Z0.426 I-0.04 J0.186
X13.657 Y12.697 Z0.405 I0.04 J-0.186
X13.577 Y13.069 Z0.384 I-0.04 J0.186
X13.657 Y12.697 Z0.363 I0.04 J-0.186
X13.577 Y13.069 Z0.342 I-0.04 J0.186
X13.657 Y12.697 Z0.322 I0.04 J-0.186
X13.577 Y13.069 Z0.301 I-0.04 J0.186
X13.657 Y12.697 Z0.28 I0.04 J-0.186
X13.577 Y13.069 Z0.259 I-0.04 J0.186
X13.657 Y12.697 Z0.238 I0.04 J-0.186
X13.577 Y13.069 Z0.217 I-0.04 J0.186
X13.657 Y12.697 Z0.197 I0.04 J-0.186
X13.577 Y13.069 Z0.176 I-0.04 J0.186
X13.657 Y12.697 Z0.155 I0.04 J-0.186
X13.577 Y13.069 Z0.134 I-0.04 J0.186
X13.657 Y12.697 Z0.113 I0.04 J-0.186
X13.577 Y13.069 Z0.092 I-0.04 J0.186
X13.657 Y12.697 Z0.071 I0.04 J-0.186
X13.577 Y13.069 Z0.051 I-0.04 J0.186
X13.657 Y12.697 Z0.03 I0.04 J-0.186
X13.577 Y13.069 Z0.009 I-0.04 J0.186
X13.657 Y12.697 Z-0.012 I0.04 J-0.186
X13.577 Y13.069 Z-0.033 I-0.04 J0.186
X13.657 Y12.697 Z-0.054 I0.04 J-0.186
X13.577 Y13.069 Z-0.074 I-0.04 J0.186
X13.657 Y12.697 Z-0.095 I0.04 J-0.186
X13.577 Y13.069 Z-0.116 I-0.04 J0.186
X13.657 Y12.697 Z-0.137 I0.04 J-0.186
X13.577 Y13.069 Z-0.158 I-0.04 J0.186
X13.657 Y12.697 Z-0.179 I0.04 J-0.186
X13.577 Y13.069 Z-0.199 I-0.04 J0.186
X13.657 Y12.697 Z-0.22 I0.04 J-0.186
X13.577 Y13.069 Z-0.241 I-0.04 J0.186
X13.657 Y12.697 Z-0.262 I0.04 J-0.186
X13.577 Y13.069 Z-0.283 I-0.04 J0.186
X13.657 Y12.697 Z-0.304 I0.04 J-0.186
X13.577 Y13.069 Z-0.325 I-0.04 J0.186
X13.657 Y12.697 Z-0.345 I0.04 J-0.186
X13.577 Y13.069 Z-0.366 I-0.04 J0.186
X13.657 Y12.697 Z-0.387 I0.04 J-0.186
X13.577 Y13.069 Z-0.408 I-0.04 J0.186
X13.657 Y12.697 Z-0.429 I0.04 J-0.186
X13.577 Y13.069 Z-0.45 I-0.04 J0.186
X13.657 Y12.697 Z-0.47 I0.04 J-0.186
X13.577 Y13.069 Z-0.491 I-0.04 J0.186
X13.657 Y12.697 Z-0.512 I0.04 J-0.186
X13.577 Y13.069 Z-0.533 I-0.04 J0.186
X13.657 Y12.697 Z-0.554 I0.04 J-0.186
X13.577 Y13.069 Z-0.575 I-0.04 J0.186
X13.657 Y12.697 Z-0.596 I0.04 J-0.186
X13.577 Y13.069 Z-0.616 I-0.04 J0.186
X13.657 Y12.697 Z-0.637 I0.04 J-0.186
X13.577 Y13.069 Z-0.658 I-0.04 J0.186
X13.657 Y12.697 Z-0.679 I0.04 J-0.186
X13.577 Y13.069 Z-0.7 I-0.04 J0.186
X13.657 Y12.697 Z-0.721 I0.04 J-0.186
X13.577 Y13.069 Z-0.741 I-0.04 J0.186
X13.657 Y12.697 Z-0.762 I0.04 J-0.186
X13.577 Y13.069 Z-0.783 I-0.04 J0.186
X13.657 Y12.697 Z-0.804 I0.04 J-0.186
X13.577 Y13.069 Z-0.825 I-0.04 J0.186
X13.657 Y12.697 Z-0.846 I0.04 J-0.186
X13.577 Y13.069 Z-0.867 I-0.04 J0.186
X13.657 Y12.697 Z-0.887 I0.04 J-0.186
X13.577 Y13.069 Z-0.908 I-0.04 J0.186
X13.657 Y12.697 Z-0.929 I0.04 J-0.186
X13.577 Y13.069 Z-0.95 I-0.04 J0.186
X13.657 Y12.697 Z-0.971 I0.04 J-0.186
X13.577 Y13.069 Z-0.992 I-0.04 J0.186
X13.657 Y12.697 Z-1.012 I0.04 J-0.186
X13.577 Y13.069 Z-1.033 I-0.04 J0.186
X13.657 Y12.697 Z-1.054 I0.04 J-0.186
X13.577 Y13.069 Z-1.075 I-0.04 J0.186
X13.657 Y12.697 Z-1.096 I0.04 J-0.186
X13.577 Y13.069 Z-1.117 I-0.04 J0.186
X13.657 Y12.697 Z-1.137 I0.04 J-0.186
X13.577 Y13.069 Z-1.158 I-0.04 J0.186
X13.657 Y12.697 Z-1.179 I0.04 J-0.186
X13.577 Y13.069 Z-1.2 I-0.04 J0.186
X13.657 Y12.697 Z-1.221 I0.04 J-0.186
X13.577 Y13.069 Z-1.242 I-0.04 J0.186
X13.657 Y12.697 Z-1.263 I0.04 J-0.186
X13.577 Y13.069 Z-1.283 I-0.04 J0.186
X13.657 Y12.697 Z-1.304 I0.04 J-0.186
X13.577 Y13.069 Z-1.325 I-0.04 J0.186
X13.657 Y12.697 Z-1.346 I0.04 J-0.186
X13.577 Y13.069 Z-1.367 I-0.04 J0.186
X13.657 Y12.697 Z-1.388 I0.04 J-0.186
X13.577 Y13.069 Z-1.408 I-0.04 J0.186
X13.657 Y12.697 Z-1.429 I0.04 J-0.186
X13.577 Y13.069 Z-1.45 I-0.04 J0.186
X13.657 Y12.697 Z-1.471 I0.04 J-0.186
X13.807 Y12.883 Z-1.48 I-0.04 J0.186
X13.427 I-0.19
X13.807 I0.19
G1 X13.824 Y12.956 F1000
X13.836 Y12.992
X13.833 Y13.067
X13.794 Y13.131
X13.736 Y13.178
X13.666 Y13.205
X13.591 Y13.213
X13.517 Y13.202
X13.378 Y13.145
X13.286 Y13.027
X13.254 Y12.88
X13.286 Y12.733
X13.374 Y12.612
X13.504 Y12.537
X13.653 Y12.521
X13.796 Y12.567
X13.909 Y12.666
X13.973 Y12.801
X14.012 Y12.946
X14.004 Y13.096
X13.935 Y13.23
X13.822 Y13.328
X13.682 Y13.381
X13.532 Y13.386
X13.386 Y13.35
X13.259 Y13.27
X13.157 Y13.16
X13.098 Y13.022
X13.08 Y12.874
X13.099 Y12.725
X13.164 Y12.589
X13.263 Y12.477
X13.387 Y12.392
X13.53 Y12.35
X13.68 Y12.348
X13.826 Y12.383
X13.954 Y12.461
X14.056 Y12.571
X14.13 Y12.701
X14.181 Y12.843
X14.196 Y12.992
X14.174 Y13.14
X14.119 Y13.28
X14.024 Y13.396
X13.904 Y13.485
X13.767 Y13.546
X13.619 Y13.571
X13.469 Y13.561
X13.325 Y13.519
X13.192 Y13.449
X13.078 Y13.352
X12.991 Y13.23
X12.931 Y13.093
X12.899 Y12.946
Y12.796
X12.934 Y12.65
X12.997 Y12.514
X13.085 Y12.393
X13.197 Y12.293
X13.329 Y12.221
X13.472 Y12.176
X13.621 Y12.16
X13.77 Y12.176
X13.912 Y12.224
X14.042 Y12.299
X14.154 Y12.398
X14.244 Y12.519
X14.312 Y12.652
X14.358 Y12.795
X14.38 Y12.943
X14.373 Y13.093
X14.337 Y13.239
X14.273 Y13.374
X14.184 Y13.495
X14.073 Y13.596
X13.945 Y13.674
X13.804 Y13.726
X13.656 Y13.752
X13.506 Y13.753
X13.359 Y13.727
X13.218 Y13.675
X13.088 Y13.601
X12.971 Y13.506
X12.873 Y13.393
X12.798 Y13.263
X12.746 Y13.122
X12.717 Y12.975
X12.711 Y12.825
X12.732 Y12.677
X12.779 Y12.534
X12.848 Y12.401
X12.938 Y12.281
X13.045 Y12.176
X13.169 Y12.091
X13.305 Y12.03
X13.45 Y11.991
X13.599 Y11.975
X13.749 Y11.983
X13.895 Y12.017
X14.033 Y12.076
X14.16 Y12.156
X14.273 Y12.254
X14.37 Y12.369
X14.449 Y12.497
X14.508 Y12.635
X14.547 Y12.779
X14.565 Y12.928
X14.563 Y13.078
X14.537 Y13.226
X14.487 Y13.367
X14.415 Y13.499
X14.323 Y13.618
X14.215 Y13.721
X14.092 Y13.808
X13.957 Y13.873
X13.813 Y13.917
X13.665 Y13.939
X13.515 Y13.941
X13.366 Y13.922
X13.222 Y13.881
X13.085 Y13.82
X12.958 Y13.74
X12.844 Y13.643
X12.743 Y13.531
X12.66 Y13.407
X12.596 Y13.271
X12.552 Y13.128
X12.528 Y12.98
X12.524 Y12.83
X12.54 Y12.68
X12.576 Y12.535
X12.634 Y12.397
X12.711 Y12.268
X12.803 Y12.15
X12.91 Y12.045
X13.031 Y11.955
X13.162 Y11.883
X13.303 Y11.832
X13.45 Y11.8
X13.599 Y11.787
X13.749 Y11.794
X13.897 Y11.821
X14.039 Y11.869
X14.173 Y11.937
X14.296 Y12.023
X14.407 Y12.123
X14.506 Y12.236
X14.589 Y12.361
X14.657 Y12.494
X14.708 Y12.636
X14.74 Y12.782
X14.755 Y12.931
X14.751 Y13.081
X14.73 Y13.23
X14.689 Y13.374
X14.627 Y13.511
X14.548 Y13.638
X14.453 Y13.754
X14.345 Y13.858
X14.224 Y13.947
X14.093 Y14.021
X13.953 Y14.075
X13.808 Y14.111
X13.659 Y14.129
X13.509 Y14.13
X13.36 Y14.113
X13.214 Y14.078
X13.073 Y14.026
X12.94 Y13.956
X12.817 Y13.871
X12.705 Y13.772
X12.604 Y13.66
X12.518 Y13.538
X12.447 Y13.406
X12.392 Y13.266
X12.356 Y13.12
X12.337 Y12.971
X12.335 Y12.821
X12.35 Y12.672
X12.381 Y12.526
X12.43 Y12.384
X12.497 Y12.249
X12.579 Y12.124
X12.675 Y12.008
X12.783 Y11.904
X12.902 Y11.813
X13.031 Y11.736
X13.168 Y11.676
X13.312 Y11.633
X13.46 Y11.607
X13.609 Y11.598
X13.759 Y11.605
X13.907 Y11.629
X14.051 Y11.67
X14.189 Y11.729
X14.319 Y11.804
X14.439 Y11.894
X14.549 Y11.996
X14.648 Y12.109
X14.734 Y12.232
X14.807 Y12.363
X14.866 Y12.501
X14.908 Y12.645
X14.935 Y12.793
X14.946 Y12.942
X14.941 Y13.092
X14.921 Y13.241
X14.885 Y13.386
X14.832 Y13.527
X14.762 Y13.66
X14.678 Y13.783
X14.58 Y13.897
X14.471 Y14
X14.351 Y14.091
X14.223 Y14.168
X14.086 Y14.231
X13.944 Y14.277
X13.797 Y14.307
X13.647 Y14.321
X13.497 Y14.32
X13.348 Y14.304
X13.201 Y14.273
X13.059 Y14.227
X12.922 Y14.165
X12.793 Y14.089
X12.672 Y14
X12.562 Y13.898
X12.462 Y13.786
X12.373 Y13.665
X12.298 Y13.536
X12.236 Y13.399
X12.19 Y13.256
X12.16 Y13.109
X12.145 Y12.96
X12.144 Y12.81
X12.159 Y12.661
X12.187 Y12.513
X12.231 Y12.37
X12.289 Y12.232
X12.363 Y12.101
X12.449 Y11.978
X12.548 Y11.865
X12.656 Y11.762
X12.775 Y11.67
X12.902 Y11.589
X13.036 Y11.523
X13.177 Y11.471
X13.322 Y11.434
X13.471 Y11.413
X13.62 Y11.407
X13.77 Y11.414
X13.919 Y11.437
X14.064 Y11.474
X14.205 Y11.525
X14.339 Y11.592
X14.466 Y11.672
X14.583 Y11.765
X14.692 Y11.869
X14.791 Y11.982
X14.879 Y12.103
X14.955 Y12.232
X15.02 Y12.368
X15.071 Y12.509
X15.107 Y12.654
X15.129 Y12.803
X15.137 Y12.953
X15.132 Y13.102
X15.113 Y13.251
X15.081 Y13.398
X15.034 Y13.54
X14.972 Y13.677
X14.896 Y13.806
X14.808 Y13.927
X14.708 Y14.04
X14.599 Y14.142
X14.48 Y14.234
X14.354 Y14.315
X14.22 Y14.383
X14.08 Y14.437
X13.936 Y14.476
X13.788 Y14.502
X13.638 Y14.513
X13.488 Y14.511
X13.339 Y14.496
X13.192 Y14.468
X13.047 Y14.427
X12.908 Y14.372
X12.774 Y14.304
X12.648 Y14.223
X12.53 Y14.13
X12.42 Y14.028
X12.32 Y13.916
X12.23 Y13.796
X12.151 Y13.668
X12.084 Y13.534
X12.03 Y13.394
X11.991 Y13.25
X11.965 Y13.102
X11.952 Y12.952
X11.953 Y12.802
X11.966 Y12.653
X11.992 Y12.505
X12.031 Y12.36
X12.083 Y12.22
X12.149 Y12.085
X12.227 Y11.957
X12.317 Y11.837
X12.417 Y11.725
X12.526 Y11.621
X12.643 Y11.528
X12.768 Y11.445
X12.9 Y11.374
X13.038 Y11.314
X13.181 Y11.269
X13.327 Y11.238
X13.476 Y11.22
X13.626 Y11.215
X13.776 Y11.222
X13.925 Y11.243
X14.071 Y11.276
X14.214 Y11.321
X14.352 Y11.381
X14.483 Y11.453
X14.607 Y11.538
X14.723 Y11.632
X14.831 Y11.736
X14.93 Y11.849
X15.02 Y11.969
X15.1 Y12.096
X15.169 Y12.229
X15.227 Y12.367
X15.272 Y12.511
X15.303 Y12.657
X15.323 Y12.806
X15.33 Y12.956
X15.325 Y13.106
X15.308 Y13.255
X15.278 Y13.402
X15.253 Y13.489
X15.203 Y13.631
X15.141 Y13.767
X15.066 Y13.897
X14.979 Y14.02
X14.883 Y14.135
X14.778 Y14.241
X14.664 Y14.339
X14.542 Y14.426
X14.412 Y14.503
X14.277 Y14.567
X14.137 Y14.62
X13.992 Y14.66
X13.845 Y14.688
X13.695 Y14.703
X13.544 Y14.707
X13.394 Y14.698
X13.245 Y14.677
X13.099 Y14.644
X12.956 Y14.599
X12.817 Y14.542
X12.684 Y14.473
X12.557 Y14.393
X12.436 Y14.303
X12.323 Y14.203
X12.217 Y14.093
X12.122 Y13.977
X12.037 Y13.854
X11.962 Y13.724
X11.898 Y13.588
X11.846 Y13.448
X11.806 Y13.303
X11.778 Y13.155
X11.762 Y13.003
X11.758 Y12.849
X11.766 Y12.694
X11.787 Y12.545
X11.819 Y12.399
X11.862 Y12.255
X11.918 Y12.116
X11.986 Y11.982
X12.065 Y11.854
X12.155 Y11.731
X12.255 Y11.614
X12.366 Y11.505
X12.485 Y11.404
X12.612 Y11.315
X12.74 Y11.238
X12.875 Y11.172
X13.015 Y11.118
X13.159 Y11.076
X13.308 Y11.046
X13.461 Y11.028
X13.617 Y11.022
X13.773 Y11.028
X13.928 Y11.047
X14.079 Y11.078
X14.223 Y11.12
X14.363 Y11.173
X14.498 Y11.239
X14.627 Y11.316
X14.753 Y11.406
X14.875 Y11.509
X14.991 Y11.623
X15.098 Y11.748
X15.194 Y11.881
X15.279 Y12.018
X15.349 Y12.156
X15.406 Y12.297
X15.453 Y12.444
X15.489 Y12.597
X15.512 Y12.756
X15.523 Y12.917
X15.521 Y13.08
X15.506 Y13.241
X15.48 Y13.389
X15.439 Y13.544
X15.388 Y13.687
X15.327 Y13.825
X15.254 Y13.959
X15.169 Y14.088
X15.073 Y14.213
X14.967 Y14.329
X14.855 Y14.433
X14.734 Y14.529
X14.605 Y14.615
X14.471 Y14.69
X14.332 Y14.754
X14.186 Y14.807
X14.034 Y14.848
X13.877 Y14.878
X13.714 Y14.896
X13.55 Y14.901
X13.387 Y14.892
X13.226 Y14.87
X13.068 Y14.836
X12.915 Y14.79
X12.768 Y14.732
X12.626 Y14.663
X12.488 Y14.581
X12.354 Y14.486
X12.227 Y14.38
X12.109 Y14.264
X12.002 Y14.14
X11.905 Y14.009
X11.82 Y13.871
X11.747 Y13.729
X11.687 Y13.585
X11.639 Y13.434
X11.601 Y13.275
X11.576 Y13.11
X11.564 Y12.942
X11.565 Y12.772
X11.58 Y12.605
X11.608 Y12.444
X11.647 Y12.288
X11.699 Y12.138
X11.762 Y11.992
X11.839 Y11.848
X11.929 Y11.709
X12.031 Y11.575
X12.144 Y11.449
X12.268 Y11.331
X12.401 Y11.224
X12.538 Y11.131
X12.677 Y11.052
X12.819 Y10.985
X12.968 Y10.93
X13.124 Y10.885
X13.288 Y10.853
X13.455 Y10.834
X13.626 Y10.827
X13.797 Y10.835
X13.966 Y10.856
X14.13 Y10.891
X14.286 Y10.937
X14.433 Y10.993
X14.575 Y11.061
X14.717 Y11.143
X14.856 Y11.24
X14.99 Y11.35
X15.117 Y11.472
X15.235 Y11.606
X15.341 Y11.748
X15.434 Y11.896
X15.513 Y12.048
X15.58 Y12.205
X15.634 Y12.368
X15.675 Y12.536
X15.703 Y12.709
X15.717 Y12.886
Y13.063
X15.703 Y13.233
X15.676 Y13.402
X15.636 Y13.566
X15.582 Y13.726
X15.517 Y13.88
X15.438 Y14.03
X15.347 Y14.175
X15.244 Y14.312
X15.131 Y14.44
X15.009 Y14.558
X14.877 Y14.666
X14.737 Y14.763
X14.59 Y14.848
X14.437 Y14.921
X14.277 Y14.982
X14.11 Y15.031
X13.938 Y15.067
X13.761 Y15.089
X13.583 Y15.096
X13.405 Y15.09
X13.228 Y15.069
X13.055 Y15.035
X12.887 Y14.987
X12.723 Y14.925
X12.564 Y14.851
X12.41 Y14.763
X12.262 Y14.662
X12.122 Y14.549
X11.992 Y14.425
X11.872 Y14.292
X11.764 Y14.149
X11.669 Y14
X11.586 Y13.846
X11.517 Y13.686
X11.46 Y13.519
X11.416 Y13.345
X11.385 Y13.166
X11.369 Y12.983
X11.368 Y12.8
X11.381 Y12.619
X11.408 Y12.442
X11.449 Y12.27
X11.503 Y12.102
X11.571 Y11.938
X11.653 Y11.779
X11.749 Y11.625
X11.858 Y11.477
X11.979 Y11.338
X12.111 Y11.208
X12.253 Y11.09
X12.399 Y10.987
X12.551 Y10.897
X12.709 Y10.82
X12.874 Y10.755
X13.046 Y10.703
X13.223 Y10.665
X13.406 Y10.641
X13.59 Y10.631
X13.776 Y10.636
X13.96 Y10.657
X14.138 Y10.691
X14.31 Y10.738
X14.475 Y10.798
X14.636 Y10.872
X14.794 Y10.961
X14.948 Y11.064
X15.095 Y11.181
X15.234 Y11.311
X15.363 Y11.453
X15.48 Y11.604
X15.584 Y11.762
X15.674 Y11.928
X15.75 Y12.099
X15.812 Y12.277
X15.861 Y12.461
X15.894 Y12.649
X15.913 Y12.84
X15.916 Y13.029
X15.903 Y13.217
X15.876 Y13.402
X15.835 Y13.583
X15.779 Y13.759
X15.71 Y13.93
X15.627 Y14.096
X15.53 Y14.255
X15.42 Y14.406
X15.299 Y14.548
X15.167 Y14.679
X15.025 Y14.799
X14.875 Y14.908
X14.716 Y15.003
X14.549 Y15.086
X14.375 Y15.156
X14.193 Y15.213
X14.007 Y15.255
X13.816 Y15.282
X13.623 Y15.293
X13.429 Y15.289
X13.237 Y15.27
X13.048 Y15.235
X12.863 Y15.186
X12.683 Y15.122
X12.508 Y15.043
X12.338 Y14.95
X12.176 Y14.843
X12.022 Y14.723
X11.878 Y14.591
X11.746 Y14.448
X11.626 Y14.296
X11.519 Y14.135
X11.427 Y13.968
X11.347 Y13.793
X11.282 Y13.611
X11.231 Y13.423
X11.194 Y13.229
X11.174 Y13.032
X11.169 Y12.834
X11.18 Y12.638
X11.207 Y12.445
X11.248 Y12.256
X11.305 Y12.071
X11.376 Y11.891
X11.463 Y11.715
X11.564 Y11.546
X11.669 Y11.399
X11.671 Y11.396
X11.73 Y11.33
X12.025 Y11.035
X12.083 Y10.983
X12.201 Y10.889
X12.345 Y10.791
X12.505 Y10.701
X12.677 Y10.621
X12.857 Y10.555
X13.045 Y10.502
X13.239 Y10.464
X13.438 Y10.442
X13.638 Y10.435
X13.838 Y10.445
X14.036 Y10.47
X14.227 Y10.511
X14.413 Y10.566
X14.593 Y10.636
X14.769 Y10.721
X14.94 Y10.821
X15.105 Y10.936
X15.262 Y11.066
X15.41 Y11.21
X15.546 Y11.366
X15.669 Y11.531
X15.777 Y11.704
X15.871 Y11.886
X15.95 Y12.074
X16.014 Y12.268
X16.063 Y12.469
X16.095 Y12.673
X16.111 Y12.878
X16.11 Y13.083
X16.093 Y13.286
X16.06 Y13.486
X16.011 Y13.681
X15.947 Y13.871
X15.868 Y14.056
X15.852 Y14.084
X15.839 Y14.1
X14.867 Y15.073
X14.755 Y15.173
X14.628 Y15.253
X14.492 Y15.316
X14.341 Y15.372
X14.159 Y15.423
X13.961 Y15.461
X13.756 Y15.484
X13.549 Y15.49
X13.34 Y15.48
X13.134 Y15.453
X12.931 Y15.409
X12.732 Y15.35
X12.539 Y15.274
X12.351 Y15.183
X12.171 Y15.077
X11.998 Y14.956
X11.836 Y14.822
X11.685 Y14.675
X11.547 Y14.516
X11.423 Y14.348
X11.313 Y14.172
X11.218 Y13.987
X11.137 Y13.795
X11.072 Y13.595
X11.023 Y13.389
X10.99 Y13.179
X10.974 Y12.966
X10.975 Y12.753
X10.993 Y12.542
X11.028 Y12.335
X11.079 Y12.132
X11.098 Y12.076
X11.103 Y12.064
X11.109 Y12.053
X11.117 Y12.043
X11.639 Y11.432
X11.671 Y11.396
X11.681 Y11.387 Z-1.474
X11.685 Y11.382 Z-1.46
G0 Z5
X14.825 Y15.017
Z-1.38
G1 Z-1.43 F1000
X14.829 Y15.022 Z-1.455
X14.84 Y15.037 Z-1.473
X14.855 Y15.057 Z-1.48
X14.867 Y15.073
X14.511 Y15.429
X14.399 Y15.529
X14.261 Y15.588
X14.116 Y15.627
X13.934 Y15.661
X13.73 Y15.682
X13.514 Y15.687
X13.295 Y15.674
X13.075 Y15.643
X12.858 Y15.595
X12.645 Y15.529
X12.437 Y15.446
X12.236 Y15.346
X12.042 Y15.23
X11.858 Y15.098
X11.685 Y14.952
X11.525 Y14.793
X11.378 Y14.622
X11.246 Y14.44
X11.129 Y14.249
X11.028 Y14.048
X10.943 Y13.84
X10.874 Y13.624
X10.823 Y13.402
X10.79 Y13.176
X10.775 Y12.948
X10.778 Y12.72
X10.799 Y12.494
X10.81 Y12.432
X10.814 Y12.418
X10.819 Y12.405
X10.826 Y12.393
X10.837 Y12.377
X10.874 Y12.326
X11.117 Y12.043
X11.132 Y12.032
X11.152 Y12.017 Z-1.473
X11.167 Y12.006 Z-1.455
X11.173 Y12.002 Z-1.43
G0 Z5
X14.469 Y15.373
Z-1.38
G1 Z-1.43 F1000
X14.473 Y15.378 Z-1.455
X14.484 Y15.393 Z-1.473
X14.499 Y15.413 Z-1.48
X14.511 Y15.429
X14.237 Y15.702
X14.126 Y15.803
X13.981 Y15.842
X13.833 Y15.867
X13.641 Y15.881
X13.422 Y15.88
X13.193 Y15.861
X12.961 Y15.822
X12.731 Y15.764
X12.504 Y15.688
X12.284 Y15.593
X12.071 Y15.48
X11.868 Y15.351
X11.675 Y15.205
X11.494 Y15.044
X11.327 Y14.869
X11.175 Y14.682
X11.039 Y14.484
X10.919 Y14.276
X10.816 Y14.058
X10.731 Y13.832
X10.663 Y13.598
X10.615 Y13.359
X10.585 Y13.117
X10.576 Y12.873
X10.579 Y12.797
X10.581 Y12.78
X10.586 Y12.764
X10.594 Y12.749
X10.671 Y12.624
X10.804 Y12.425
X10.826 Y12.393
X10.84 Y12.38
X10.859 Y12.363 Z-1.473
X10.872 Y12.35 Z-1.455
X10.877 Y12.346 Z-1.43
G0 Z5
X14.195 Y15.646
Z-1.38
G1 Z-1.43 F1000
X14.199 Y15.652 Z-1.455
X14.21 Y15.666 Z-1.473
X14.225 Y15.686 Z-1.48
X14.237 Y15.702
X14.039 Y15.901
X13.927 Y16.001
X13.785 Y16.049
X13.636 Y16.069
X13.483 Y16.075
X13.282 Y16.067
X13.05 Y16.039
X12.809 Y15.99
X12.568 Y15.921
X12.33 Y15.831
X12.098 Y15.722
X11.876 Y15.594
X11.663 Y15.448
X11.463 Y15.285
X11.277 Y15.107
X11.106 Y14.915
X10.951 Y14.711
X10.813 Y14.494
X10.693 Y14.268
X10.592 Y14.031
X10.509 Y13.787
X10.446 Y13.535
X10.403 Y13.279
X10.389 Y13.118
X10.39 Y13.097
X10.394 Y13.076
X10.404 Y13.057
X10.594 Y12.749
X10.607 Y12.735
X10.625 Y12.717 Z-1.473
X10.638 Y12.704 Z-1.455
X10.643 Y12.7 Z-1.43
G0 Z5
X13.997 Y15.845
Z-1.38
G1 Z-1.43 F1000
X14.001 Y15.85 Z-1.455
X14.012 Y15.865 Z-1.473
X14.027 Y15.885 Z-1.48
X14.039 Y15.901
X13.816 Y16.124
X13.704 Y16.224
X13.558 Y16.256
X13.408 Y16.264
X13.214 Y16.256
X12.988 Y16.229
X12.753 Y16.182
X12.508 Y16.112
X12.255 Y16.017
X12.009 Y15.901
X11.772 Y15.765
X11.547 Y15.61
X11.334 Y15.438
X11.136 Y15.249
X10.954 Y15.045
X10.789 Y14.828
X10.642 Y14.598
X10.515 Y14.358
X10.406 Y14.107
X10.318 Y13.847
X10.251 Y13.58
X10.221 Y13.402
X10.219 Y13.379
X10.223 Y13.357
X10.232 Y13.336
X10.242 Y13.319
X10.404 Y13.057
X10.417 Y13.043
X10.435 Y13.025 Z-1.473
X10.448 Y13.012 Z-1.455
X10.453 Y13.008 Z-1.43
G0 Z5
X13.774 Y16.068
Z-1.38
G1 Z-1.43 F1000
X13.778 Y16.073 Z-1.455
X13.789 Y16.088 Z-1.473
X13.804 Y16.108 Z-1.48
X13.816 Y16.124
X13.617 Y16.322
X13.562 Y16.373
X13.423 Y16.43
X13.274 Y16.445
X13.115 Y16.439
X12.91 Y16.415
X12.677 Y16.368
X12.443 Y16.301
X12.178 Y16.201
X11.918 Y16.079
X11.667 Y15.935
X11.428 Y15.772
X11.203 Y15.589
X10.993 Y15.389
X10.8 Y15.174
X10.626 Y14.943
X10.47 Y14.7
X10.335 Y14.445
X10.22 Y14.18
X10.126 Y13.905
X10.07 Y13.683
X10.067 Y13.658
X10.071 Y13.633
X10.08 Y13.61
X10.211 Y13.373
X10.232 Y13.336
X10.245 Y13.322
X10.262 Y13.303 Z-1.473
X10.275 Y13.29 Z-1.455
X10.279 Y13.285 Z-1.43
G0 Z5
X13.574 Y16.267
Z-1.38
G1 Z-1.43 F1000
X13.579 Y16.273 Z-1.455
X13.59 Y16.287 Z-1.473
X13.605 Y16.307 Z-1.48
X13.617 Y16.322
X13.518 Y16.425
X13.45 Y16.496
X13.396 Y16.548
X13.259 Y16.608
X13.109 Y16.621
X12.96 Y16.614
X12.766 Y16.587
X12.539 Y16.536
X12.28 Y16.455
X12.011 Y16.346
X11.743 Y16.213
X11.484 Y16.056
X11.236 Y15.878
X11.004 Y15.68
X10.787 Y15.465
X10.589 Y15.232
X10.411 Y14.985
X10.253 Y14.725
X10.116 Y14.452
X10.001 Y14.168
X9.942 Y13.98
X9.938 Y13.957
X9.939 Y13.934
X9.945 Y13.912
X10.042 Y13.68
X10.08 Y13.61
X10.093 Y13.596
X10.11 Y13.577 Z-1.473
X10.122 Y13.564 Z-1.455
X10.127 Y13.559 Z-1.43
G0 Z5
X13.407 Y16.442
Z-1.38
G1 Z-1.43 F1000
X13.411 Y16.447 Z-1.455
X13.423 Y16.462 Z-1.473
X13.438 Y16.481 Z-1.48
X13.45 Y16.496
X13.418 Y16.53
X13.369 Y16.596
X13.343 Y16.641
X13.304 Y16.706
X13.174 Y16.781
X13.026 Y16.801
X12.876 Y16.795
X12.688 Y16.77
X12.469 Y16.722
X12.232 Y16.65
X11.951 Y16.539
X11.67 Y16.4
X11.396 Y16.237
X11.134 Y16.052
X10.888 Y15.845
X10.659 Y15.62
X10.449 Y15.377
X10.259 Y15.118
X10.091 Y14.844
X9.945 Y14.558
X9.826 Y14.271
X9.82 Y14.246
Y14.219
X9.827 Y14.194
X9.945 Y13.912
X9.957 Y13.896
X9.971 Y13.876 Z-1.473
X9.982 Y13.861 Z-1.455
X9.986 Y13.855 Z-1.43
G0 Z5
X13.286 Y16.601
Z-1.38
G1 Z-1.43 F1000
X13.291 Y16.605 Z-1.455
X13.306 Y16.615 Z-1.473
X13.327 Y16.63 Z-1.48
X13.343 Y16.641
X13.319 Y16.687
X13.28 Y16.794
X13.267 Y16.83
X13.215 Y16.883
X13.086 Y16.96
X12.937 Y16.981
X12.787 Y16.976
X12.604 Y16.951
X12.386 Y16.904
X12.158 Y16.835
X11.877 Y16.724
X11.581 Y16.58
X11.293 Y16.409
X11.018 Y16.215
X10.759 Y15.999
X10.518 Y15.762
X10.297 Y15.507
X10.097 Y15.236
X9.92 Y14.949
X9.766 Y14.649
X9.717 Y14.531
X9.71 Y14.505
X9.711 Y14.479
X9.717 Y14.454
X9.827 Y14.194
X9.838 Y14.178
X9.853 Y14.158 Z-1.473
X9.863 Y14.143 Z-1.455
X9.867 Y14.138 Z-1.43
G0 Z5
X13.215 Y16.77
Z-1.38
G1 Z-1.43 F1000
X13.221 Y16.772 Z-1.455
X13.238 Y16.779 Z-1.473
X13.262 Y16.787 Z-1.48
X13.28 Y16.794
X13.258 Y16.894
X13.253 Y16.924
X13.245 Y16.96
X13.207 Y17.025
X13.09 Y17.119
X12.945 Y17.156
X12.795 Y17.163
X12.645 Y17.152
X12.457 Y17.121
X12.236 Y17.066
X11.967 Y16.977
X11.672 Y16.851
X11.372 Y16.694
X11.078 Y16.509
X10.797 Y16.298
X10.647 Y16.166
X10.401 Y15.928
X10.168 Y15.665
X9.956 Y15.382
X9.767 Y15.084
X9.617 Y14.797
X9.614 Y14.791
X9.607 Y14.768
X9.606 Y14.744
X9.611 Y14.72
X9.645 Y14.626
X9.717 Y14.454
X9.729 Y14.438
X9.744 Y14.418 Z-1.473
X9.754 Y14.403 Z-1.455
X9.758 Y14.397 Z-1.43
G0 Z5
X13.187 Y16.902
Z-1.38
G1 Z-1.43 F1000
X13.193 Y16.904 Z-1.455
X13.211 Y16.91 Z-1.473
X13.234 Y16.918 Z-1.48
X13.253 Y16.924
X13.224 Y17.092
X13.216 Y17.129
X13.178 Y17.194
X13.066 Y17.293
X12.922 Y17.336
X12.773 Y17.348
X12.623 Y17.34
X12.449 Y17.317
X12.254 Y17.276
X11.994 Y17.198
X11.697 Y17.082
X11.387 Y16.931
X11.078 Y16.749
X10.779 Y16.539
X10.526 Y16.329
X10.37 Y16.176
X10.147 Y15.949
X9.923 Y15.681
X9.714 Y15.386
X9.612 Y15.213
X9.532 Y15.065
X9.523 Y15.04
X9.52 Y15.014
X9.525 Y14.987
X9.611 Y14.72
X9.621 Y14.704
X9.634 Y14.682 Z-1.473
X9.643 Y14.667 Z-1.455
X9.647 Y14.661 Z-1.43
G0 Z5
X13.158 Y17.071
Z-1.38
G1 Z-1.43 F1000
X13.164 Y17.073 Z-1.455
X13.182 Y17.079 Z-1.473
X13.206 Y17.086 Z-1.48
X13.224 Y17.092
X13.191 Y17.291
X13.183 Y17.327
X13.091 Y17.446
X12.954 Y17.506
X12.806 Y17.53
X12.656 Y17.533
X12.506 Y17.521
X12.322 Y17.492
X12.081 Y17.433
X11.795 Y17.338
X11.484 Y17.206
X11.165 Y17.039
X10.986 Y16.927
X10.685 Y16.719
X10.419 Y16.501
X10.104 Y16.198
X9.853 Y15.916
X9.627 Y15.616
X9.464 Y15.359
X9.452 Y15.334
X9.448 Y15.308
X9.451 Y15.281
X9.519 Y15.007
X9.525 Y14.987
X9.535 Y14.971
X9.548 Y14.949 Z-1.473
X9.557 Y14.933 Z-1.455
X9.56 Y14.928 Z-1.43
G0 Z5
X13.125 Y17.27
Z-1.38
G1 Z-1.43 F1000
X13.131 Y17.272 Z-1.455
X13.149 Y17.277 Z-1.473
X13.172 Y17.285 Z-1.48
X13.191 Y17.291
X13.163 Y17.458
X13.147 Y17.532
X13.047 Y17.643
X12.907 Y17.697
X12.758 Y17.719
X12.608 Y17.721
X12.442 Y17.708
X12.228 Y17.672
X11.983 Y17.612
X11.824 Y17.558
X11.524 Y17.443
X11.199 Y17.288
X10.918 Y17.124
X10.559 Y16.874
X10.288 Y16.652
X9.972 Y16.349
X9.715 Y16.062
X9.478 Y15.751
X9.398 Y15.627
X9.386 Y15.602
X9.382 Y15.576
X9.385 Y15.549
X9.451 Y15.281
X9.46 Y15.264
X9.471 Y15.241 Z-1.473
X9.48 Y15.225 Z-1.455
X9.483 Y15.219 Z-1.43
G0 Z5
X13.097 Y17.437
Z-1.38
G1 Z-1.43 F1000
X13.103 Y17.439 Z-1.455
X13.121 Y17.445 Z-1.473
X13.145 Y17.452 Z-1.48
X13.163 Y17.458
X13.13 Y17.657
X13.122 Y17.693
X13.078 Y17.754
X12.962 Y17.849
X12.819 Y17.894
X12.67 Y17.91
X12.52 Y17.908
X12.33 Y17.889
X12.1 Y17.846
X11.873 Y17.785
X11.54 Y17.666
X11.202 Y17.514
X10.898 Y17.346
X10.537 Y17.108
X10.23 Y16.867
X9.909 Y16.571
X9.622 Y16.264
X9.368 Y15.943
X9.334 Y15.891
X9.321 Y15.866
X9.317 Y15.839
X9.32 Y15.811
X9.385 Y15.549
X9.393 Y15.531
X9.405 Y15.509 Z-1.473
X9.413 Y15.493 Z-1.455
X9.416 Y15.487 Z-1.43
G0 Z5
X13.064 Y17.636
Z-1.38
G1 Z-1.43 F1000
X13.07 Y17.638 Z-1.455
X13.088 Y17.643 Z-1.473
X13.111 Y17.651 Z-1.48
X13.13 Y17.657
X13.103 Y17.817
X13.087 Y17.891
X12.99 Y18.005
X12.853 Y18.065
X12.705 Y18.093
X12.555 Y18.099
X12.405 Y18.092
X12.197 Y18.066
X11.968 Y18.017
X11.666 Y17.928
X11.335 Y17.8
X11.139 Y17.704
X10.837 Y17.543
X10.472 Y17.307
X10.147 Y17.058
X9.822 Y16.766
X9.521 Y16.452
X9.282 Y16.159
X9.274 Y16.148
X9.262 Y16.124
X9.257 Y16.098
X9.259 Y16.071
X9.273 Y16
X9.32 Y15.811
X9.328 Y15.794
X9.34 Y15.772 Z-1.473
X9.348 Y15.755 Z-1.455
X9.351 Y15.749 Z-1.43
G0 Z5
X13.037 Y17.796
Z-1.38
G1 Z-1.43 F1000
X13.043 Y17.798 Z-1.455
X13.061 Y17.804 Z-1.473
X13.085 Y17.811 Z-1.48
X13.103 Y17.817
X13.07 Y18.016
X13.062 Y18.053
X13.022 Y18.116
X12.91 Y18.215
X12.768 Y18.265
X12.619 Y18.286
X12.469 Y18.289
X12.288 Y18.275
X12.068 Y18.241
X11.789 Y18.175
X11.468 Y18.071
X11.315 Y18.008
X10.973 Y17.848
X10.593 Y17.631
X10.233 Y17.382
X10.063 Y17.245
X9.746 Y16.971
X9.439 Y16.659
X9.223 Y16.407
X9.211 Y16.383
X9.205 Y16.357
X9.206 Y16.331
X9.212 Y16.298
X9.259 Y16.071
X9.267 Y16.053
X9.277 Y16.03 Z-1.473
X9.285 Y16.014 Z-1.455
X9.288 Y16.008 Z-1.43
G0 Z5
X13.004 Y17.995
Z-1.38
G1 Z-1.43 F1000
X13.01 Y17.997 Z-1.455
X13.028 Y18.002 Z-1.473
X13.052 Y18.01 Z-1.48
X13.07 Y18.016
X13.042 Y18.184
X13.026 Y18.258
X12.932 Y18.374
X12.796 Y18.437
X12.649 Y18.468
X12.499 Y18.478
X12.349 Y18.475
X12.151 Y18.454
X11.892 Y18.406
X11.584 Y18.323
X11.324 Y18.23
X10.937 Y18.054
X10.562 Y17.847
X10.197 Y17.605
X9.852 Y17.336
X9.531 Y17.039
X9.378 Y16.882
X9.182 Y16.668
X9.168 Y16.644
X9.161 Y16.617
X9.162 Y16.59
X9.206 Y16.331
X9.214 Y16.313
X9.223 Y16.29 Z-1.473
X9.231 Y16.273 Z-1.455
X9.233 Y16.267 Z-1.43
G0 Z5
X12.976 Y18.163
Z-1.38
G1 Z-1.43 F1000
X12.982 Y18.165 Z-1.455
X13 Y18.171 Z-1.473
X13.024 Y18.179 Z-1.48
X13.042 Y18.184
X13.009 Y18.383
X12.993 Y18.456
X12.896 Y18.571
X12.758 Y18.631
X12.611 Y18.66
X12.462 Y18.67
X12.286 Y18.665
X12.058 Y18.64
X11.803 Y18.591
X11.627 Y18.542
X11.362 Y18.457
X11 Y18.308
X10.618 Y18.114
X10.245 Y17.885
X9.891 Y17.628
X9.592 Y17.378
X9.282 Y17.069
X9.146 Y16.925
X9.129 Y16.899
X9.12 Y16.87
Y16.84
X9.162 Y16.59
X9.17 Y16.572
X9.179 Y16.549 Z-1.473
X9.186 Y16.532 Z-1.455
X9.189 Y16.526 Z-1.43
G0 Z5
X12.943 Y18.362
Z-1.38
G1 Z-1.43 F1000
X12.949 Y18.364 Z-1.455
X12.967 Y18.37 Z-1.473
X12.99 Y18.377 Z-1.48
X13.009 Y18.383
X12.976 Y18.582
X12.968 Y18.618
X12.928 Y18.681
X12.816 Y18.781
X12.674 Y18.832
X12.526 Y18.855
X12.376 Y18.861
X12.177 Y18.851
X11.937 Y18.82
X11.696 Y18.769
X11.373 Y18.672
X11.006 Y18.53
X10.615 Y18.341
X10.238 Y18.119
X9.878 Y17.871
X9.551 Y17.61
X9.232 Y17.31
X9.104 Y17.172
X9.087 Y17.147
X9.079 Y17.118
Y17.088
X9.12 Y16.84
X9.128 Y16.822
X9.138 Y16.799 Z-1.473
X9.145 Y16.782 Z-1.455
X9.147 Y16.776 Z-1.43
G0 Z5
X12.91 Y18.561
Z-1.38
G1 Z-1.43 F1000
X12.916 Y18.563 Z-1.455
X12.934 Y18.568 Z-1.473
X12.957 Y18.576 Z-1.48
X12.976 Y18.582
X12.943 Y18.78
X12.935 Y18.817
X12.845 Y18.937
X12.71 Y19.003
X12.564 Y19.037
X12.414 Y19.05
X12.26 Y19.051
X12.044 Y19.034
X11.802 Y18.996
X11.501 Y18.923
X11.15 Y18.807
X10.747 Y18.636
X10.361 Y18.43
X9.99 Y18.199
X9.637 Y17.94
X9.473 Y17.804
X9.16 Y17.522
X9.064 Y17.421
X9.046 Y17.396
X9.037 Y17.366
X9.038 Y17.336
X9.079 Y17.088
X9.087 Y17.07
X9.096 Y17.047 Z-1.473
X9.103 Y17.03 Z-1.455
X9.106 Y17.024 Z-1.43
G0 Z5
X12.877 Y18.759
Z-1.38
G1 Z-1.43 F1000
X12.883 Y18.761 Z-1.455
X12.9 Y18.767 Z-1.473
X12.924 Y18.774 Z-1.48
X12.943 Y18.78
X12.915 Y18.946
X12.899 Y19.02
X12.805 Y19.136
X12.668 Y19.199
X12.522 Y19.23
X12.372 Y19.243
X12.185 Y19.242
X11.959 Y19.222
X11.686 Y19.176
X11.518 Y19.133
X11.182 Y19.031
X10.798 Y18.88
X10.412 Y18.691
X10.036 Y18.468
X9.854 Y18.346
X9.5 Y18.088
X9.168 Y17.804
X9.031 Y17.674
X9.021 Y17.662
X9.005 Y17.637
X8.997 Y17.609
Y17.579
X9.038 Y17.336
X9.045 Y17.318
X9.055 Y17.295 Z-1.473
X9.062 Y17.278 Z-1.455
X9.065 Y17.271 Z-1.43
G0 Z5
X12.849 Y18.925
Z-1.38
G1 Z-1.43 F1000
X12.855 Y18.927 Z-1.455
X12.873 Y18.933 Z-1.473
X12.897 Y18.94 Z-1.48
X12.915 Y18.946
X12.882 Y19.146
X12.866 Y19.22
X12.767 Y19.333
X12.63 Y19.393
X12.483 Y19.423
X12.333 Y19.435
X12.138 Y19.434
X11.906 Y19.415
X11.675 Y19.377
X11.33 Y19.291
X10.964 Y19.168
X10.563 Y18.993
X10.369 Y18.892
X9.988 Y18.677
X9.625 Y18.433
X9.278 Y18.166
X9.128 Y18.034
X9 Y17.917
X8.984 Y17.9
X8.966 Y17.875
X8.957 Y17.846
X8.958 Y17.815
X8.997 Y17.579
X9.005 Y17.561
X9.014 Y17.538 Z-1.473
X9.021 Y17.521 Z-1.455
X9.024 Y17.515 Z-1.43
G0 Z5
X12.816 Y19.125
Z-1.38
G1 Z-1.43 F1000
X12.822 Y19.127 Z-1.455
X12.839 Y19.133 Z-1.473
X12.863 Y19.14 Z-1.48
X12.882 Y19.146
X12.849 Y19.345
X12.841 Y19.381
X12.8 Y19.444
X12.687 Y19.544
X12.547 Y19.595
X12.399 Y19.62
X12.247 Y19.629
X12.042 Y19.625
X11.812 Y19.601
X11.508 Y19.546
X11.32 Y19.495
X10.97 Y19.383
X10.566 Y19.217
X10.176 Y19.019
X9.802 Y18.793
X9.439 Y18.548
X9.099 Y18.274
X8.96 Y18.151
X8.945 Y18.135
X8.928 Y18.11
X8.918 Y18.08
X8.919 Y18.049
X8.958 Y17.815
X8.965 Y17.797
X8.975 Y17.774 Z-1.473
X8.982 Y17.757 Z-1.455
X8.985 Y17.751 Z-1.43
G0 Z5
X12.782 Y19.324
Z-1.38
G1 Z-1.43 F1000
X12.789 Y19.326 Z-1.455
X12.806 Y19.331 Z-1.473
X12.83 Y19.339 Z-1.48
X12.849 Y19.345
X12.823 Y19.503
X12.807 Y19.576
X12.719 Y19.698
X12.585 Y19.765
X12.439 Y19.801
X12.29 Y19.818
X12.129 Y19.822
X11.915 Y19.811
X11.636 Y19.774
X11.375 Y19.718
X10.98 Y19.599
X10.573 Y19.44
X10.179 Y19.249
X9.8 Y19.03
X9.435 Y18.789
X9.26 Y18.659
X8.961 Y18.42
X8.91 Y18.372
X8.89 Y18.346
X8.88 Y18.316
Y18.283
X8.919 Y18.049
X8.926 Y18.031
X8.936 Y18.008 Z-1.473
X8.943 Y17.991 Z-1.455
X8.946 Y17.985 Z-1.43
G0 Z5
X12.756 Y19.481
Z-1.38
G1 Z-1.43 F1000
X12.763 Y19.484 Z-1.455
X12.78 Y19.489 Z-1.473
X12.804 Y19.497 Z-1.48
X12.823 Y19.503
X12.789 Y19.704
X12.773 Y19.777
X12.682 Y19.896
X12.547 Y19.961
X12.401 Y19.996
X12.252 Y20.012
X12.064 Y20.015
X11.818 Y20
X11.555 Y19.963
X11.287 Y19.903
X10.87 Y19.772
X10.464 Y19.61
X10.071 Y19.418
X9.692 Y19.199
X9.327 Y18.957
X8.98 Y18.7
X8.866 Y18.6
X8.849 Y18.575
X8.841 Y18.546
Y18.516
X8.88 Y18.283
X8.887 Y18.265
X8.897 Y18.242 Z-1.473
X8.904 Y18.225 Z-1.455
X8.907 Y18.219 Z-1.43
G0 Z5
X12.723 Y19.683
Z-1.38
G1 Z-1.43 F1000
X12.729 Y19.685 Z-1.455
X12.746 Y19.69 Z-1.473
X12.77 Y19.698 Z-1.48
X12.789 Y19.704
X12.756 Y19.903
X12.74 Y19.976
X12.646 Y20.093
X12.51 Y20.156
X12.364 Y20.19
X12.213 Y20.205
X12.006 Y20.209
X11.767 Y20.195
X11.521 Y20.16
X11.244 Y20.098
X10.826 Y19.969
X10.419 Y19.809
X10.025 Y19.62
X9.644 Y19.404
X9.277 Y19.166
X8.923 Y18.909
X8.837 Y18.838
X8.815 Y18.811
X8.803 Y18.779
Y18.744
X8.841 Y18.516
X8.848 Y18.498
X8.858 Y18.475 Z-1.473
X8.865 Y18.458 Z-1.455
X8.868 Y18.452 Z-1.43
G0 Z5
X12.69 Y19.881
Z-1.38
G1 Z-1.43 F1000
X12.696 Y19.883 Z-1.455
X12.713 Y19.889 Z-1.473
X12.737 Y19.897 Z-1.48
X12.756 Y19.903
X12.723 Y20.098
X12.707 Y20.172
X12.612 Y20.288
X12.476 Y20.35
X12.33 Y20.383
X12.167 Y20.4
X11.957 Y20.404
X11.72 Y20.39
X11.48 Y20.356
X11.193 Y20.292
X10.775 Y20.162
X10.367 Y20.004
X9.971 Y19.817
X9.589 Y19.605
X9.22 Y19.369
X8.864 Y19.116
X8.8 Y19.062
X8.778 Y19.035
X8.766 Y19.003
Y18.969
X8.803 Y18.744
X8.81 Y18.726
X8.82 Y18.703 Z-1.473
X8.827 Y18.687 Z-1.455
X8.83 Y18.68 Z-1.43
G0 Z5
X12.657 Y20.077
Z-1.38
G1 Z-1.43 F1000
X12.663 Y20.079 Z-1.455
X12.681 Y20.085 Z-1.473
X12.705 Y20.092 Z-1.48
X12.723 Y20.098
X12.69 Y20.3
X12.674 Y20.373
X12.574 Y20.485
X12.437 Y20.546
X12.29 Y20.578
X12.122 Y20.595
X11.911 Y20.599
X11.677 Y20.585
X11.436 Y20.551
X11.266 Y20.513
X10.893 Y20.414
X10.48 Y20.269
X10.078 Y20.097
X9.689 Y19.895
X9.313 Y19.672
X8.951 Y19.427
X8.834 Y19.341
X8.765 Y19.285
X8.742 Y19.259
X8.729 Y19.226
Y19.191
X8.766 Y18.969
X8.773 Y18.951
X8.783 Y18.928 Z-1.473
X8.79 Y18.911 Z-1.455
X8.792 Y18.905 Z-1.43
G0 Z5
X12.623 Y20.279
Z-1.38
G1 Z-1.43 F1000
X12.63 Y20.281 Z-1.455
X12.647 Y20.286 Z-1.473
X12.671 Y20.294 Z-1.48
X12.69 Y20.3
X12.662 Y20.468
X12.646 Y20.542
X12.56 Y20.664
X12.425 Y20.731
X12.28 Y20.767
X12.116 Y20.787
X11.925 Y20.795
X11.713 Y20.787
X11.466 Y20.757
X11.139 Y20.691
X10.719 Y20.569
X10.309 Y20.416
X9.909 Y20.239
X9.525 Y20.03
X9.336 Y19.919
X8.968 Y19.689
X8.847 Y19.599
X8.728 Y19.508
X8.72 Y19.501
X8.701 Y19.475
X8.691 Y19.445
Y19.413
X8.729 Y19.191
X8.736 Y19.173
X8.746 Y19.15 Z-1.473
X8.753 Y19.133 Z-1.455
X8.755 Y19.127 Z-1.43
G0 Z5
X12.595 Y20.447
Z-1.38
G1 Z-1.43 F1000
X12.602 Y20.449 Z-1.455
X12.619 Y20.455 Z-1.473
X12.643 Y20.462 Z-1.48
X12.662 Y20.468
X12.629 Y20.667
X12.613 Y20.74
X12.524 Y20.861
X12.389 Y20.926
X12.243 Y20.962
X12.086 Y20.982
X11.894 Y20.99
X11.665 Y20.981
X11.428 Y20.953
X11.109 Y20.89
X10.688 Y20.769
X10.278 Y20.619
X9.876 Y20.445
X9.489 Y20.242
X9.113 Y20.018
X8.943 Y19.909
X8.745 Y19.772
X8.69 Y19.727
X8.667 Y19.701
X8.655 Y19.668
Y19.633
X8.691 Y19.413
X8.699 Y19.395
X8.709 Y19.372 Z-1.473
X8.716 Y19.355 Z-1.455
X8.718 Y19.349 Z-1.43
G0 Z5
X12.562 Y20.646
Z-1.38
G1 Z-1.43 F1000
X12.569 Y20.648 Z-1.455
X12.586 Y20.653 Z-1.473
X12.61 Y20.661 Z-1.48
X12.629 Y20.667
X12.595 Y20.865
X12.579 Y20.939
X12.488 Y21.057
X12.352 Y21.122
X12.207 Y21.157
X12.049 Y21.177
X11.847 Y21.185
X11.619 Y21.176
X11.371 Y21.147
X11.188 Y21.109
X10.816 Y21.02
X10.4 Y20.884
X9.995 Y20.718
X9.796 Y20.627
X9.408 Y20.426
X9.032 Y20.202
X8.749 Y20.022
X8.656 Y19.951
X8.632 Y19.925
X8.618 Y19.891
Y19.855
X8.655 Y19.633
X8.662 Y19.615
X8.672 Y19.592 Z-1.473
X8.679 Y19.575 Z-1.455
X8.682 Y19.569 Z-1.43
G0 Z5
X12.529 Y20.844
Z-1.38
G1 Z-1.43 F1000
X12.535 Y20.846 Z-1.455
X12.553 Y20.852 Z-1.473
X12.577 Y20.859 Z-1.48
X12.595 Y20.865
X12.562 Y21.064
X12.546 Y21.137
X12.452 Y21.254
X12.316 Y21.318
X12.17 Y21.353
X12.008 Y21.372
X11.803 Y21.38
X11.568 Y21.371
X11.342 Y21.343
X10.933 Y21.26
X10.513 Y21.138
X10.103 Y20.985
X9.703 Y20.807
X9.317 Y20.601
X8.938 Y20.383
X8.792 Y20.287
X8.667 Y20.204
X8.618 Y20.165
X8.595 Y20.138
X8.582 Y20.106
Y20.07
X8.618 Y19.855
X8.625 Y19.837
X8.635 Y19.814 Z-1.473
X8.642 Y19.797 Z-1.455
X8.645 Y19.791 Z-1.43
G0 Z5
X12.496 Y21.043
Z-1.38
G1 Z-1.43 F1000
X12.502 Y21.045 Z-1.455
X12.52 Y21.051 Z-1.473
X12.544 Y21.058 Z-1.48
X12.562 Y21.064
X12.529 Y21.263
X12.513 Y21.336
X12.417 Y21.451
X12.28 Y21.514
X12.134 Y21.548
X11.969 Y21.568
X11.76 Y21.576
X11.534 Y21.567
X11.291 Y21.537
X11.077 Y21.493
X10.782 Y21.428
X10.364 Y21.299
X9.956 Y21.141
X9.558 Y20.959
X9.175 Y20.749
X8.795 Y20.532
X8.695 Y20.464
X8.572 Y20.377
X8.554 Y20.352
X8.545 Y20.322
Y20.291
X8.582 Y20.07
X8.59 Y20.052
X8.599 Y20.029 Z-1.473
X8.606 Y20.012 Z-1.455
X8.609 Y20.006 Z-1.43
G0 Z5
X12.463 Y21.242
Z-1.38
G1 Z-1.43 F1000
X12.469 Y21.244 Z-1.455
X12.487 Y21.249 Z-1.473
X12.511 Y21.257 Z-1.48
X12.529 Y21.263
X12.496 Y21.461
X12.48 Y21.534
X12.381 Y21.647
X12.245 Y21.709
X12.099 Y21.744
X11.93 Y21.764
X11.723 Y21.772
X11.49 Y21.762
X11.253 Y21.733
X10.825 Y21.646
X10.404 Y21.525
X9.994 Y21.373
X9.593 Y21.198
X9.204 Y20.999
X8.633 Y20.662
X8.55 Y20.604
X8.525 Y20.577
X8.51 Y20.543
X8.509 Y20.506
X8.545 Y20.291
X8.553 Y20.273
X8.562 Y20.25 Z-1.473
X8.569 Y20.233 Z-1.455
X8.572 Y20.227 Z-1.43
G0 Z5
X12.43 Y21.44
Z-1.38
G1 Z-1.43 F1000
X12.436 Y21.442 Z-1.455
X12.454 Y21.448 Z-1.473
X12.477 Y21.455 Z-1.48
X12.496 Y21.461
X12.463 Y21.66
X12.447 Y21.733
X12.346 Y21.844
X12.209 Y21.905
X12.063 Y21.939
X11.894 Y21.96
X11.685 Y21.968
X11.453 Y21.958
X11.213 Y21.929
X10.784 Y21.841
X10.363 Y21.722
X9.953 Y21.572
X9.551 Y21.399
X9.16 Y21.203
X8.781 Y20.983
X8.666 Y20.914
X8.539 Y20.835
X8.51 Y20.81
X8.487 Y20.784
X8.475 Y20.751
X8.474 Y20.717
X8.509 Y20.506
X8.517 Y20.488
X8.527 Y20.465 Z-1.473
X8.534 Y20.448 Z-1.455
X8.536 Y20.442 Z-1.43
G0 Z5
X12.397 Y21.639
Z-1.38
G1 Z-1.43 F1000
X12.403 Y21.641 Z-1.455
X12.42 Y21.646 Z-1.473
X12.444 Y21.654 Z-1.48
X12.463 Y21.66
X12.43 Y21.858
X12.422 Y21.895
X12.338 Y22.02
X12.205 Y22.089
X12.061 Y22.128
X11.898 Y22.151
X11.713 Y22.163
X11.5 Y22.16
X11.254 Y22.136
X10.85 Y22.063
X10.427 Y21.952
X10.013 Y21.811
X9.608 Y21.645
X9.212 Y21.458
X8.829 Y21.247
X8.541 Y21.071
X8.479 Y21.025
X8.454 Y20.998
X8.44 Y20.964
X8.439 Y20.928
X8.474 Y20.717
X8.482 Y20.699
X8.491 Y20.675 Z-1.473
X8.499 Y20.659 Z-1.455
X8.501 Y20.652 Z-1.43
G0 Z5
X12.364 Y21.837
Z-1.38
G1 Z-1.43 F1000
X12.37 Y21.839 Z-1.455
X12.387 Y21.845 Z-1.473
X12.411 Y21.852 Z-1.48
X12.43 Y21.858
X12.397 Y22.057
X12.389 Y22.094
X12.304 Y22.217
X12.17 Y22.285
X12.025 Y22.324
X11.872 Y22.346
X11.681 Y22.359
X11.453 Y22.355
X11.211 Y22.331
X10.996 Y22.293
X10.693 Y22.233
X10.273 Y22.113
X9.86 Y21.968
X9.458 Y21.795
X9.26 Y21.702
X8.887 Y21.516
X8.519 Y21.293
X8.444 Y21.239
X8.418 Y21.212
X8.404 Y21.178
X8.403 Y21.141
X8.439 Y20.928
X8.447 Y20.91
X8.456 Y20.887 Z-1.473
X8.463 Y20.87 Z-1.455
X8.466 Y20.864 Z-1.43
G0 Z5
X12.33 Y22.036
Z-1.38
G1 Z-1.43 F1000
X12.337 Y22.038 Z-1.455
X12.354 Y22.043 Z-1.473
X12.378 Y22.051 Z-1.48
X12.397 Y22.057
X12.371 Y22.211
X12.355 Y22.284
X12.274 Y22.41
X12.141 Y22.48
X11.996 Y22.519
X11.842 Y22.542
X11.643 Y22.554
X11.414 Y22.551
X11.179 Y22.528
X10.749 Y22.451
X10.325 Y22.34
X9.911 Y22.2
X9.504 Y22.039
X9.11 Y21.85
X8.928 Y21.76
X8.604 Y21.585
X8.514 Y21.527
X8.41 Y21.456
X8.383 Y21.43
X8.368 Y21.395
X8.367 Y21.357
X8.403 Y21.141
X8.411 Y21.123
X8.421 Y21.1 Z-1.473
X8.428 Y21.083 Z-1.455
X8.43 Y21.077 Z-1.43
G0 Z5
X12.305 Y22.19
Z-1.38
G1 Z-1.43 F1000
X12.311 Y22.192 Z-1.455
X12.329 Y22.197 Z-1.473
X12.352 Y22.205 Z-1.48
X12.371 Y22.211
X12.338 Y22.409
X12.322 Y22.483
X12.239 Y22.607
X12.106 Y22.676
X11.961 Y22.715
X11.802 Y22.738
X11.6 Y22.751
X11.372 Y22.746
X11.122 Y22.722
X10.692 Y22.643
X10.269 Y22.532
X9.854 Y22.393
X9.447 Y22.232
X9.051 Y22.045
X8.661 Y21.849
X8.456 Y21.728
X8.373 Y21.669
X8.347 Y21.642
X8.333 Y21.608
X8.332 Y21.571
X8.367 Y21.357
X8.375 Y21.339
X8.385 Y21.316 Z-1.473
X8.392 Y21.299 Z-1.455
X8.394 Y21.293 Z-1.43
G0 Z5
X12.272 Y22.388
Z-1.38
G1 Z-1.43 F1000
X12.278 Y22.39 Z-1.455
X12.296 Y22.396 Z-1.473
X12.319 Y22.404 Z-1.48
X12.338 Y22.409
X12.305 Y22.608
X12.289 Y22.681
X12.204 Y22.805
X12.07 Y22.873
X11.925 Y22.912
X11.764 Y22.935
X11.561 Y22.947
X11.325 Y22.942
X11.082 Y22.918
X10.651 Y22.839
X10.228 Y22.728
X9.813 Y22.59
X9.406 Y22.431
X9.008 Y22.248
X8.618 Y22.051
X8.427 Y21.942
X8.339 Y21.882
X8.312 Y21.856
X8.297 Y21.821
X8.296 Y21.783
X8.332 Y21.571
X8.339 Y21.553
X8.349 Y21.53 Z-1.473
X8.356 Y21.513 Z-1.455
X8.359 Y21.507 Z-1.43
G0 Z5
X12.239 Y22.587
Z-1.38
G1 Z-1.43 F1000
X12.245 Y22.589 Z-1.455
X12.262 Y22.595 Z-1.473
X12.286 Y22.602 Z-1.48
X12.305 Y22.608
X12.272 Y22.807
X12.256 Y22.88
X12.169 Y23.002
X12.035 Y23.07
X11.89 Y23.108
X11.727 Y23.131
X11.52 Y23.143
X11.285 Y23.139
X11.042 Y23.114
X10.612 Y23.035
X10.188 Y22.925
X9.773 Y22.788
X9.365 Y22.631
X8.966 Y22.45
X8.575 Y22.254
X8.393 Y22.153
X8.305 Y22.094
X8.277 Y22.067
X8.262 Y22.032
X8.261 Y21.994
X8.296 Y21.783
X8.304 Y21.765
X8.314 Y21.742 Z-1.473
X8.321 Y21.725 Z-1.455
X8.323 Y21.719 Z-1.43
G0 Z5
X12.206 Y22.786
Z-1.38
G1 Z-1.43 F1000
X12.212 Y22.788 Z-1.455
X12.229 Y22.793 Z-1.473
X12.253 Y22.801 Z-1.48
X12.272 Y22.807
X12.237 Y23.019
X12.221 Y23.092
X12.123 Y23.206
X11.988 Y23.27
X11.842 Y23.307
X11.675 Y23.329
X11.464 Y23.34
X11.226 Y23.333
X10.958 Y23.304
X10.529 Y23.221
X10.106 Y23.109
X9.691 Y22.971
X9.282 Y22.813
X8.884 Y22.632
X8.493 Y22.437
X8.351 Y22.358
X8.269 Y22.303
X8.242 Y22.276
X8.227 Y22.241
X8.226 Y22.203
X8.261 Y21.994
X8.269 Y21.976
X8.279 Y21.953 Z-1.473
X8.286 Y21.936 Z-1.455
X8.288 Y21.93 Z-1.43
G0 Z5
X12.17 Y22.998
Z-1.38
G1 Z-1.43 F1000
X12.177 Y23 Z-1.455
X12.194 Y23.005 Z-1.473
X12.218 Y23.013 Z-1.48
X12.237 Y23.019
X12.203 Y23.217
X12.187 Y23.291
X12.089 Y23.404
X11.953 Y23.467
X11.807 Y23.503
X11.637 Y23.526
X11.424 Y23.536
X11.18 Y23.529
X11.032 Y23.513
X10.639 Y23.451
X10.214 Y23.349
X9.795 Y23.222
X9.385 Y23.07
X8.981 Y22.903
X8.589 Y22.708
X8.363 Y22.594
X8.235 Y22.516
X8.223 Y22.505
X8.202 Y22.479
X8.191 Y22.447
Y22.414
X8.226 Y22.203
X8.234 Y22.185
X8.244 Y22.162 Z-1.473
X8.251 Y22.145 Z-1.455
X8.253 Y22.139 Z-1.43
G0 Z5
X12.137 Y23.196
Z-1.38
G1 Z-1.43 F1000
X12.143 Y23.198 Z-1.455
X12.161 Y23.204 Z-1.473
X12.185 Y23.211 Z-1.48
X12.203 Y23.217
X12.17 Y23.416
X12.154 Y23.489
X12.054 Y23.601
X11.918 Y23.664
X11.772 Y23.699
X11.6 Y23.722
X11.383 Y23.733
X11.18 Y23.727
X10.812 Y23.687
X10.4 Y23.608
X9.979 Y23.488
X9.77 Y23.423
X9.358 Y23.276
X8.954 Y23.108
X8.559 Y22.921
X8.405 Y22.84
X8.273 Y22.768
X8.201 Y22.721
X8.173 Y22.694
X8.158 Y22.659
X8.157 Y22.621
X8.191 Y22.414
X8.199 Y22.396
X8.209 Y22.373 Z-1.473
X8.216 Y22.356 Z-1.455
X8.218 Y22.35 Z-1.43
G0 Z5
X12.104 Y23.395
Z-1.38
G1 Z-1.43 F1000
X12.11 Y23.397 Z-1.455
X12.128 Y23.402 Z-1.473
X12.152 Y23.41 Z-1.48
X12.17 Y23.416
X12.137 Y23.615
X12.129 Y23.651
X12.048 Y23.777
X11.915 Y23.848
X11.771 Y23.888
X11.605 Y23.914
X11.42 Y23.928
X11.226
X10.886 Y23.899
X10.485 Y23.832
X10.06 Y23.726
X9.644 Y23.59
X9.232 Y23.443
X8.831 Y23.27
X8.435 Y23.084
X8.323 Y23.023
X8.193 Y22.948
X8.16 Y22.922
X8.136 Y22.896
X8.123 Y22.863
Y22.827
X8.157 Y22.621
X8.164 Y22.603
X8.174 Y22.579 Z-1.473
X8.181 Y22.563 Z-1.455
X8.184 Y22.556 Z-1.43
G0 Z5
X12.071 Y23.593
Z-1.38
G1 Z-1.43 F1000
X12.077 Y23.595 Z-1.455
X12.095 Y23.601 Z-1.473
X12.119 Y23.609 Z-1.48
X12.137 Y23.615
X12.118 Y23.727
X12.114 Y23.745
X12.077 Y23.844
X12.047 Y23.913
X11.934 Y24.012
X11.795 Y24.067
X11.648 Y24.099
X11.496 Y24.118
X11.318 Y24.125
X11.026 Y24.114
X10.653 Y24.069
X10.237 Y23.984
X9.817 Y23.861
X9.404 Y23.718
X9.198 Y23.643
X8.794 Y23.474
X8.399 Y23.287
X8.222 Y23.194
X8.133 Y23.137
X8.105 Y23.11
X8.089 Y23.075
X8.088 Y23.036
X8.095 Y23.018
X8.105 Y22.995 Z-1.473
X8.112 Y22.978 Z-1.455
X8.115 Y22.972 Z-1.43
G0 Z5
X12.016 Y23.811
Z-1.38
G1 Z-1.43 F1000
X12.022 Y23.814 Z-1.455
X12.038 Y23.823 Z-1.473
X12.06 Y23.835 Z-1.48
X12.077 Y23.844
X12.002 Y24.043
X11.972 Y24.112
X11.862 Y24.214
X11.723 Y24.269
X11.576 Y24.3
X11.427 Y24.315
X11.187 Y24.32
X10.861 Y24.3
X10.655 Y24.27
X10.26 Y24.195
X9.838 Y24.079
X9.424 Y23.937
X9.012 Y23.79
X8.416 Y23.516
X8.206 Y23.411
X8.137 Y23.369
X8.112 Y23.348
X8.095 Y23.319
X8.089 Y23.287
X8.093 Y23.268
X8.097 Y23.243 Z-1.473
X8.101 Y23.225 Z-1.455
X8.102 Y23.219 Z-1.43
G0 Z5
X11.941 Y24.009
Z-1.38
G1 Z-1.43 F1000
X11.947 Y24.012 Z-1.455
X11.963 Y24.021 Z-1.473
X11.984 Y24.033 Z-1.48
X12.002 Y24.043
X11.929 Y24.235
X11.921 Y24.254
X11.913 Y24.266
X11.864 Y24.318
X11.757 Y24.423
X11.616 Y24.475
